!!!!SEGMENT: pl-sa--153-a-iv-3--003_anonim--msza-patrem.krn
!!!cenid: 17xx:1527
!!!COM: Anonim
!!!COM-rismID: pe30004985
!!!CDT:
!!!CNT:
!!!OPR: Msza
!!!OTL: Patrem
!!!OMV: 003
!!!PDT:
!!!AGN: Sacred; Mass
!!!SMS-siglum: PL-SA
!!!SMS-shelfmark: 153/A IV 3
!!!SMS-shelfwork: 001-003 M
!!!SMS-variant:
!!!SMS-altvar:
!!!NIFC-rismSourceID: 1001035513
!!!NIFC-islandoraID:
!!!URL-pdf-islandora:
!!!URL-scan: https://bc.bdsandomierz.pl/dlibra/publication/1539/edition/1507/content @EN{Scan in the Sandomierz Diocese Digital Library} @PL{Skany w portalu Cyfrowa Biblioteka Diecezjalna w Sandomierzu}
!!!ONB-nifc: UWAGA: części Mszy: 1. Kirie, 2. Gloria, 3. Patrem, 4. Sanctus, 5. Benedictus, 6. Agnus. Uwaga: kontynuacja partii b. fig na str. 22
!!!AIN: 1 bass 2 clrno 1 organ 1 soprn 2 violn
!!!key: D
**kern	**fba	**dynam	**kern	**dynam	**kern	**dynam	**kern	**text	**text	**kern	**text	**text	**kern	**dynam	**kern	**dynam
*part7	*part7	*part7	*part6	*part6	*part5	*part5	*part4	*part4	*part4	*part3	*part3	*part3	*part2	*part2	*part1	*part1
*staff7	*	*	*staff6	*	*staff5	*	*staff4	*staff4	*staff4	*staff3	*staff3	*staff3	*staff2	*	*staff1	*
*I"Fundamento	*	*	*I"Violino Secundo	*	*I"Violino Primo	*	*I"Baſso	*	*	*I"Canto	*	*	*I"Clarino Secundo	*	*I"Clarino Primo	*
*I'org	*	*	*I'vl II	*	*I'vl I	*	*I'B	*	*	*I'S	*	*	*I'clno II	*	*I'clno I	*
*ICklav	*	*	*ICstr	*	*ICstr	*	*ICvox	*	*	*ICvox	*	*	*ICbras	*	*ICbras	*
*Iorgan	*	*	*Ivioln	*	*Ivioln	*	*Ibass	*	*	*Isoprn	*	*	*Iclrno	*	*Iclrno	*
*clefF4	*	*	*clefG2	*	*clefG2	*	*clefF4	*	*	*clefC1	*	*	*clefG2	*	*clefG2	*
*	*	*	*	*	*	*	*	*	*	*	*	*	*ITrd-1c-2	*	*ITrd-1c-2	*
*k[f#c#]	*	*	*k[f#c#]	*	*k[f#c#]	*	*k[f#c#]	*	*	*k[f#c#]	*	*	*k[f#c#]	*	*k[f#c#]	*
*D:	*	*	*D:	*	*D:	*	*D:	*	*	*D:	*	*	*D:	*	*D:	*
*M3/4	*	*	*M3/4	*	*M3/4	*	*M3/4	*	*	*M3/4	*	*	*M3/4	*	*M3/4	*
=1	=1	=1	=1	=1	=1	=1	=1	=1	=1	=1	=1	=1	=1	=1	=1	=1
!!LO:TX:t=P:problem: 2\right	!	!	!	!	!	!	!	!	!	!	!	!	!	!	!
!LO:TX:a:t=Tutti	!	!	!LO:TX:a:t=Tutti	!	!LO:TX:a:t=Tutti	!	!	!	!	!	!	!	!LO:TX:a:B:t=All[egr]o&colon;	!	!LO:TX:a:B:t=All[egr]o&colon;	!
!LO:TX:b:t=Patrem	!	!	!LO:TX:b:t=Patrem	!	!LO:TX:b:t=Patrem	!	!	!	!	!	!	!	!	!	!LO:TX:b:t=Patrem	!
4d\	.	.	8r	.	8r	.	4d\	Pa-	.	4ff#\	Pa-	.	4dd\	.	4ff#\	.
.	.	.	8a/L	.	8a/L	.	.	.	.	.	.	.	.	.	.	.
4d\	.	.	8f#/	.	8f#/	.	4d\	-trem	.	4ff#\	-trem	.	4dd\	.	4ff#\	.
.	.	.	8a/	.	8a/	.	.	.	.	.	.	.	.	.	.	.
!	!	!	!	!	!	!	!LO:SIC:l:s=om	!	!	!	!	!	!	!	!	!
4d\	.	.	8d/	.	8d/	.	4d\	on-	.	4ff#\	om-	.	4dd\	.	4ff#\	.
.	.	.	8ff#\J	.	8ff#\J	.	.	.	.	.	.	.	.	.	.	.
=2	=2	=2	=2	=2	=2	=2	=2	=2	=2	=2	=2	=2	=2	=2	=2	=2
4c#\	.	.	8ee\L	.	8ee\L	.	(4c#\	-ni-	.	2ee\	-ni-	.	2a/	.	2ee\	.
.	.	.	8a\	.	8a\	.	.	.	.	.	.	.	.	.	.	.
4A\	.	.	8cc#\	.	8cc#\	.	4A\)	.	.	.	.	.	.	.	.	.
.	.	.	8ee\	.	8ee\	.	.	.	.	.	.	.	.	.	.	.
4d\	.	.	8aa\	.	8aa\	.	4d\	-po-	.	4ee\	-po-	.	4dd\	.	4ff#\	.
.	.	.	8ff#\J	.	8ff#\J	.	.	.	.	.	.	.	.	.	.	.
=3	=3	=3	=3	=3	=3	=3	=3	=3	=3	=3	=3	=3	=3	=3	=3	=3
4A\	.	.	8ee\L	.	8ee\L	.	4A\	-ten-	.	4ee\	-ten-	.	4a/	.	4ee\	.
.	.	.	8a\	.	8a\	.	.	.	.	.	.	.	.	.	.	.
4A\	.	.	8cc#\	.	8cc#\	.	4A\	-tem	.	4ee\	-tem	.	4a/	.	4ee\	.
.	.	.	8ee\	.	8ee\	.	.	.	.	.	.	.	.	.	.	.
4F#\	.	.	8aa\	.	8aa\	.	4F#\	fac-	.	4dd\	fa-	.	4ff#\	.	4aa\	.
.	.	.	8ff#\J	.	8ff#\J	.	.	.	.	.	.	.	.	.	.	.
=4	=4	=4	=4	=4	=4	=4	=4	=4	=4	=4	=4	=4	=4	=4	=4	=4
2B\	5	.	8gg\L	.	8gg\L	.	2B\	-to-	.	2dd\	-cto-	.	2ee\	.	2gg\	.
.	.	.	8ff#\	.	8ff#\	.	.	.	.	.	.	.	.	.	.	.
.	.	.	8gg\	.	8gg\	.	.	.	.	.	.	.	.	.	.	.
.	.	.	8b\	.	8b\	.	.	.	.	.	.	.	.	.	.	.
4E\	5	.	8ee\	.	8ee\	.	4E\	-rem	.	4b\	-rem	.	4ee\	.	8gg\L	.
.	.	.	8gg\J	.	8gg\J	.	.	.	.	.	.	.	.	.	8ff#\J	.
=5	=5	=5	=5	=5	=5	=5	=5	=5	=5	=5	=5	=5	=5	=5	=5	=5
4A\	3_	.	8ee\L	.	8ee\L	.	(4A\	Ce-	.	2cc#\	Ce-	.	4a/	.	4ee\	.
.	.	.	8a\	.	8a\	.	.	.	.	.	.	.	.	.	.	.
4G\	.	.	8cc#\	.	8cc#\	.	4G\)	.	.	.	.	.	4a/	.	4ee\	.
.	.	.	8a\	.	8a\	.	.	.	.	.	.	.	.	.	.	.
4F#\	.	.	8dd\	.	8dd\	.	4F#\	-li	.	4dd\	-li	.	4dd\	.	4ff#\	.
.	.	.	8a\J	.	8a\J	.	.	.	.	.	.	.	.	.	.	.
=6	=6	=6	=6	=6	=6	=6	=6	=6	=6	=6	=6	=6	=6	=6	=6	=6
4G\	.	.	8b\L	.	8b\L	.	4G\	et	.	4dd\	et	.	8ee\L	.	8gg\L	.
.	.	.	8dd\J	.	8dd\J	.	.	.	.	.	.	.	8dd\J	.	8ff#\J	.
4A\	.	.	8e/L	.	8e/L	.	2A\	ter-	.	(4dd\	ter-	.	4.a/	.	4.ee\	.
.	.	.	8dd\	.	8dd\	.	.	.	.	.	.	.	.	.	.	.
4AA/	.	.	8e/	.	8e/	.	.	.	.	4cc#\)	.	.	.	.	.	.
.	.	.	8cc#\J	.	8cc#\J	.	.	.	.	.	.	.	8f#/	.	8dd\	.
=7	=7	=7	=7	=7	=7	=7	=7	=7	=7	=7	=7	=7	=7	=7	=7	=7
4D\	.	.	8d/L	.	8d/L	.	4D\	-re	.	4dd\	-ra[e]	.	4f#/	.	4dd\	.
.	.	.	8a/	.	8a/	.	.	.	.	.	.	.	.	.	.	.
4F#\	.	.	8f#/	.	8f#/	.	4F#\	Vi-	.	4a\	Vi-	.	8r	.	8r	.
.	.	.	8a/	.	8a/	.	.	.	.	.	.	.	8a/L	.	8a/L	.
4D\	.	.	8d/	.	8d/	.	4D\	-si-	.	4a\	-si-	.	8f#/	.	8f#/	.
.	.	.	8ff#\J	.	8ff#\J	.	.	.	.	.	.	.	8d/J	.	8d/J	.
=8	=8	=8	=8	=8	=8	=8	=8	=8	=8	=8	=8	=8	=8	=8	=8	=8
4A\	.	.	8ee\L	.	8ee\L	.	4A\	-bi-	.	4.a\	-bi-	.	8.a/L	.	4a/	.
.	.	.	8a\	.	8a\	.	.	.	.	.	.	.	.	.	.	.
.	.	.	.	.	.	.	.	.	.	.	.	.	16a/Jk	.	.	.
4C#/	.	.	8cc#\	.	8cc#\	.	4C#/	-li-	.	.	.	.	4a/	.	8r	.
.	.	.	8ee\	.	8ee\	.	.	.	.	8a\	-li-	.	.	.	8a/L	.
4D/	.	.	8aa\	.	8aa\	.	4D/	-um	.	4a\	-um	.	4r	.	8a/	.
.	.	.	8ff#\J	.	8ff#\J	.	.	.	.	.	.	.	.	.	8a/J	.
=9	=9	=9	=9	=9	=9	=9	=9	=9	=9	=9	=9	=9	=9	=9	=9	=9
4AA/	.	.	8ee\L	.	8ee\L	.	4AA/	om-	.	4a\	om-	.	8.a/L	.	4a/	.
.	.	.	8a\J	.	8a\	.	.	.	.	.	.	.	.	.	.	.
.	.	.	.	.	.	.	.	.	.	.	.	.	16a/Jk	.	.	.
4BB/	.	.	8dd\L	.	8dd\	.	4BB/	-ni-	.	4g#X\	-ni-	.	4a/	.	4r	.
.	.	.	8a\J	.	8a\	.	.	.	.	.	.	.	.	.	.	.
4C#/	.	.	8ee\L	.	8ee\	.	4C#/	-um	.	4a\	-um	.	4r	.	4r	.
.	.	.	8a\J	.	8a\J	.	.	.	.	.	.	.	.	.	.	.
=10	=10	=10	=10	=10	=10	=10	=10	=10	=10	=10	=10	=10	=10	=10	=10	=10
4D/	.	.	8ff#\L	.	8ff#\L	.	4D/	et	.	4f#/	et	.	2.r	.	2.r	.
.	.	.	8aa\	.	8aa\	.	.	.	.	.	.	.	.	.	.	.
4C#/	.	.	8ee\	.	8ee\	.	4C#/	in-	.	4e/	in-	.	.	.	.	.
.	.	.	8aa\	.	8aa\	.	.	.	.	.	.	.	.	.	.	.
4BB/	.	.	8dd\	.	8dd\	.	4BB/	-vi-	.	4dd\	-vi-	.	.	.	.	.
.	.	.	8bb\J	.	8bb\J	.	.	.	.	.	.	.	.	.	.	.
!	!	!	!	!	!	!	!LO:LB:g=original	!	!	!LO:LB:g=original	!	!	!	!	!	!
=11	=11	=11	=11	=11	=11	=11	=11	=11	=11	=11	=11	=11	=11	=11	=11	=11
8C#/L	.	.	8ee\L	.	8ee\L	.	8C#/L	-si-	.	8cc#\L	-si-	.	4r	.	4r	.
8D/J	.	.	8aa\J	.	8aa\	.	8D/J	.	.	8b\J	.	.	.	.	.	.
4E\	.	.	8b\L	.	8b\	.	4.E\	-bi-	.	4.b\	-bi-	.	2ee\	.	4aa\	.
.	.	.	8aa\	.	8aa\	.	.	.	.	.	.	.	.	.	.	.
4EE/	.	.	8b\	.	8b\	.	.	.	.	.	.	.	.	.	4gg#X\	.
.	.	.	8gg#X\J	.	8gg#X\J	.	8E\	-li-	.	8a\	-li-	.	.	.	.	.
=12	=12	=12	=12	=12	=12	=12	=12	=12	=12	=12	=12	=12	=12	=12	=12	=12
4AA/	.	.	8aa\L	.	8aa\L	.	4AA/	-um	.	4a\	-um	.	8ee\L	.	8aa\L	.
.	.	.	8ee\	.	8ee\	.	.	.	.	.	.	.	16ee\L	.	8ee\	.
.	.	.	.	.	.	.	.	.	.	.	.	.	16ee\JJ	.	.	.
4A\	.	.	8cc#\	.	8cc#\	.	4A\	et	.	4cc#\	et	.	8ee\L	.	8ee\	.
.	.	.	8ee\J	.	8ee\J	.	.	.	.	.	.	.	8ee\	.	8ee\	.
4A\	.	.	8a/L	.	8a/L	.	4A\	in	.	4cc#\	in	.	8ee\	.	8ee\	.
.	.	.	8ccc#\J	.	8ccc#\J	.	.	.	.	.	.	.	8ee\J	.	8ee\J	.
!	!	!	!LO:LB:g=original	!	!	!	!	!	!	!	!	!	!	!	!	!
=13	=13	=13	=13	=13	=13	=13	=13	=13	=13	=13	=13	=13	=13	=13	=13	=13
4G#X\	6	.	8bb\L	.	8bb\L	.	(4G#X\	u-	.	2b\	u-	.	2ee\	.	2ee\	.
.	.	.	8gg#X\	.	8gg#X\	.	.	.	.	.	.	.	.	.	.	.
4E\	.	.	8ee\	.	8ee\	.	4E\)	.	.	.	.	.	.	.	.	.
.	.	.	8dd\	.	8dd\	.	.	.	.	.	.	.	.	.	.	.
4A\	.	.	8cc#\	.	8cc#\	.	4A\	-num	.	4cc#\	-num	.	4r	.	4r	.
.	.	.	8a\J	.	8a\J	.	.	.	.	.	.	.	.	.	.	.
!LO:LB:g=original	!	!	!	!	!LO:LB:g=original	!	!	!	!	!	!	!	!	!	!	!
=14	=14	=14	=14	=14	=14	=14	=14	=14	=14	=14	=14	=14	=14	=14	=14	=14
4.E\	#	.	8g#X/L	.	8g#X/L	.	4.E\	Do-	.	4.b\	Do-	.	2.r	.	2.r	.
.	.	.	8b/J	.	8b/J	.	.	.	.	.	.	.	.	.	.	.
!	!	!	!LO:TX:t=P:problem=mixed beam	!	!LO:TX:t=P:problem=mixed beam	!	!	!	!	!	!	!	!	!	!	!
.	.	.	8e/L	.	8e/L	.	.	.	.	.	.	.	.	.	.	.
8D\	.	.	8ee\	.	8ee\	.	8D\	-mi-	.	8g#X\	-mi-	.	.	.	.	.
4C#/	.	.	8cc#\	.	8cc#\	.	4C#/	-num	.	4a\	-num	.	.	.	.	.
.	.	.	8a\J	.	8a\J	.	.	.	.	.	.	.	.	.	.	.
=15	=15	=15	=15	=15	=15	=15	=15	=15	=15	=15	=15	=15	=15	=15	=15	=15
2F#\	.	.	8dd\L	.	8dd\L	.	2F#\	je-	.	2dd\	Je-	.	2.r	.	2.r	.
.	.	.	8cc#\J	.	8cc#\	.	.	.	.	.	.	.	.	.	.	.
!	!	!	!LO:TX:t=P:problem=mixed beam	!	!	!	!	!	!	!	!	!	!	!	!	!
.	.	.	8dd\L	.	8dd\	.	.	.	.	.	.	.	.	.	.	.
.	.	.	8f#/	.	8f#\J	.	.	.	.	.	.	.	.	.	.	.
4BB/	.	.	8b\	.	8b\L	.	4BB/	-sum	.	4dd\	-sum	.	.	.	.	.
.	.	.	8dd\J	.	8dd\J	.	.	.	.	.	.	.	.	.	.	.
=16	=16	=16	=16	=16	=16	=16	=16	=16	=16	=16	=16	=16	=16	=16	=16	=16
!	!	!	!LO:TX:t=P:problem=mixed beam	!	!LO:TX:t=P:problem=mixed beam	!	!	!	!	!	!	!	!	!	!	!
4E\	#	.	8g#X/L	.	8g#X/L	.	4E\	Chri-	.	4b\	Chri-	.	4ee\	.	4ee\	.
.	.	.	8bb\	.	8bb\	.	.	.	.	.	.	.	.	.	.	.
4E\	.	.	8gg#X\	.	8gg#X\	.	4E\	-stum	.	4b\	-stum	.	4r	.	4r	.
.	.	.	8ee\	.	8ee\	.	.	.	.	.	.	.	.	.	.	.
4r	.	.	8b\	.	8b\	.	4r	.	.	4r	.	.	8r	.	8r	.
.	.	.	8g#\J	.	8g#\J	.	.	.	.	.	.	.	8ee\	.	8ee\	.
!	!	!	!	!	!	!	!	!	!	!	!	!	!LO:LB:g=original	!	!	!
=17	=17	=17	=17	=17	=17	=17	=17	=17	=17	=17	=17	=17	=17	=17	=17	=17
4E\	#	.	8e/L	.	8e/L	.	4E\	fi-	.	4ee\	Fi-	.	4ee\	.	4ee\	.
.	.	.	8ee\J	.	8ee\	.	.	.	.	.	.	.	.	.	.	.
4F#\	.	.	8a/L	.	8a/	.	4F#\	-li-	.	4ee\	-li-	.	4r	.	4r	.
.	.	.	8aa\J	.	8aa\J	.	.	.	.	.	.	.	.	.	.	.
4G#X\	.	.	8dd\L	.	8dd\L	.	4G#X\	-um	.	4ee\	-um	.	4r	.	4r	.
.	.	.	8bb\J	.	8bb\J	.	.	.	.	.	.	.	.	.	.	.
!	!	!	!	!	!	!	!	!	!	!	!	!	!	!	!LO:LB:g=original	!
=18	=18	=18	=18	=18	=18	=18	=18	=18	=18	=18	=18	=18	=18	=18	=18	=18
4A\	.	.	8cc#\L	.	8cc#\L	.	4A\	De-	.	4ee\	De-	.	4r	.	4r	.
.	.	.	8aa\	.	8aa\	.	.	.	.	.	.	.	.	.	.	.
4E\	#	.	8gg#X\	.	8gg#X\	.	4E\	-i	.	4dd\	-i	.	4r	.	4r	.
.	.	.	8dd\	.	8dd\	.	.	.	.	.	.	.	.	.	.	.
4F#\	.	.	8cc#\	.	8cc#\	.	4F#\	u-	.	4cc#\	u-	.	4ff#\	.	4aa\	.
.	.	.	8a\J	.	8a\J	.	.	.	.	.	.	.	.	.	.	.
=19	=19	=19	=19	=19	=19	=19	=19	=19	=19	=19	=19	=19	=19	=19	=19	=19
4D\	6	.	8f#/L	.	8f#/L	.	4D\	-ni-	.	4b\	-ni-	.	4dd\	.	4ff#\	.
.	.	.	8b/J	.	8b/J	.	.	.	.	.	.	.	.	.	.	.
4E\	#	.	8c#/L	.	8c#/L	.	4E\	-ge-	.	4.b\	-ge-	.	2eeT\	.	2gg#X\	.
.	.	.	8a/J	.	8a/J	.	.	.	.	.	.	.	.	.	.	.
4EE/	.	.	8B/L	.	8B/L	.	4E\	-ni-	.	.	.	.	.	.	.	.
.	.	.	8g#X/J	.	8g#X/J	.	.	.	.	8a\	-ni-	.	.	.	.	.
!	!	!	!	!	!	!	!	!	!	!LO:LB:g=original	!	!	!	!	!	!
=20	=20	=20	=20	=20	=20	=20	=20	=20	=20	=20	=20	=20	=20	=20	=20	=20
4AA/	.	.	8a/L	.	8a\L	.	4AA/	-tum	.	4a\	-tum	.	4ee\	.	4aa\	.
.	.	.	8ee\J	.	8ee\	.	.	.	.	.	.	.	.	.	.	.
4A\	.	.	8cc#\L	.	8cc#\	.	4A\	et	.	4cc#\	et	.	4a/	.	4ee\	.
.	.	.	8ee\	.	8ee\	.	.	.	.	.	.	.	.	.	.	.
4A\	.	.	8a\	.	8a\	.	4A\	ex	.	4cc#\	ex	.	4a/	.	4ee\	.
.	.	.	8cc#\J	.	8cc#\J	.	.	.	.	.	.	.	.	.	.	.
!	!	!	!	!	!	!	!LO:LB:g=original	!	!	!	!	!	!	!	!	!
=21	=21	=21	=21	=21	=21	=21	=21	=21	=21	=21	=21	=21	=21	=21	=21	=21
2Gn\	4 2	.	8a/L	.	8ee\L	.	2G\	Pa-	.	2cc#\	pa-	.	2a/	.	2ee\	.
.	.	.	8ee\J	.	8aa\	.	.	.	.	.	.	.	.	.	.	.
.	.	.	8cc#\L	.	8cc#\	.	.	.	.	.	.	.	.	.	.	.
.	.	.	8ee\	.	8ee\	.	.	.	.	.	.	.	.	.	.	.
4G\	.	.	8a\	.	8a\	.	4G\	-tre	.	4cc#\	-tre	.	4a/	.	4ee\	.
.	.	.	8cc#\J	.	8cc#\J	.	.	.	.	.	.	.	.	.	.	.
=22	=22	=22	=22	=22	=22	=22	=22	=22	=22	=22	=22	=22	=22	=22	=22	=22
2F#\	6	.	8dd\L	.	8dd\L	.	2F#\	na-	.	2dd\	na-	.	4r	.	4r	.
.	.	.	8a\J	.	8a\	.	.	.	.	.	.	.	.	.	.	.
.	.	.	8ff#\L	.	8ff#\	.	.	.	.	.	.	.	4r	.	4r	.
.	.	.	8dd\J	.	8dd\	.	.	.	.	.	.	.	.	.	.	.
4F#\	.	.	8aa\L	.	8aa\	.	4F#\	-tum	.	4dd\	-tum	.	4ff#\	.	4aa\	.
.	.	.	8dd\J	.	8dd\J	.	.	.	.	.	.	.	.	.	.	.
=23	=23	=23	=23	=23	=23	=23	=23	=23	=23	=23	=23	=23	=23	=23	=23	=23
2E\	6	.	8cc#\L	.	8cc#\L	.	2E\	an-	.	2cc#\	an-	.	2ee\	.	2gg\	.
.	.	.	8gn\J	.	8g\	.	.	.	.	.	.	.	.	.	.	.
.	.	.	8ee\L	.	8ee\	.	.	.	.	.	.	.	.	.	.	.
.	.	.	8cc#\	.	8cc#\	.	.	.	.	.	.	.	.	.	.	.
4E\	.	.	8gg\	.	8gg\	.	4E\	-te	.	4cc#\	-te	.	4a/	.	4gg\	.
.	.	.	8cc#\J	.	8cc#\J	.	.	.	.	.	.	.	.	.	.	.
!	!	!	!LO:LB:g=original	!	!	!	!	!	!	!	!	!	!	!	!	!
=24	=24	=24	=24	=24	=24	=24	=24	=24	=24	=24	=24	=24	=24	=24	=24	=24
4.D\	6	.	8b\L	.	8b\L	.	4.D\	om-	.	4.b\	om-	.	4dd\	.	4ff#\	.
.	.	.	8ff#\J	.	8ff#\	.	.	.	.	.	.	.	.	.	.	.
.	.	.	8dd\L	.	8dd\	.	.	.	.	.	.	.	4r	.	4r	.
8D\	.	.	8b\J	.	8b\	.	8D\	-ni-	.	8b\	-ni-	.	.	.	.	.
!	!	!	!	!	!	!	!	!	!	!LO:SIC:l:s=a	!	!	!	!	!	!
4E\	.	.	8ddd\L	.	8ddd\	.	4E\	-a	.	4b\	-um	.	4r	.	4r	.
.	.	.	8bb\J	.	8bb\J	.	.	.	.	.	.	.	.	.	.	.
=25	=25	=25	=25	=25	=25	=25	=25	=25	=25	=25	=25	=25	=25	=25	=25	=25
4.F#\	#	.	8aa#X\L	.	8aa#X\L	.	4.F#\	ſe-	.	4.a#X\	Se-	.	4r	.	4r	.
.	.	.	8ccc#\J	.	8ccc#\	.	.	.	.	.	.	.	.	.	.	.
*	*	*	*	*	*	*	*	*	*	*	*	*	*tremolo	*	*	*
.	.	.	8aa#\L	.	8aa#\	.	.	.	.	.	.	.	8f#/L	.	8f#/L	.
8F#\	.	.	8ff#\J	.	8ff#\	.	8F#\	-cu-	.	8a#\	-cu-	.	8f#/	.	8f#/	.
4F#\	.	.	8cc#\L	.	8cc#\	.	4F#\	-la	.	4a#\	-la	.	8f#/	.	8f#/	.
.	.	.	8a#X\J	.	8a#X\J	.	.	.	.	.	.	.	8f#/J	.	8f#/J	.
*	*	*	*	*	*	*	*	*	*	*	*	*	*Xtremolo	*	*	*
!	!	!	!	!	!LO:LB:g=original	!	!	!	!	!	!	!	!	!	!	!
=26	=26	=26	=26	=26	=26	=26	=26	=26	=26	=26	=26	=26	=26	=26	=26	=26
4F#\	#	.	8f#/L	.	8f#/L	.	4F#\	De-	.	4cc#\	De-	.	4f#/	.	4f#/	.
.	.	.	8ff#\J	.	8ff#\	.	.	.	.	.	.	.	.	.	.	.
4B\	n	.	8dd\L	.	8dd\	.	4B\	-um	.	4dd\	-um	.	4r	.	4r	.
.	.	.	8ff#\J	.	8ff#\	.	.	.	.	.	.	.	.	.	.	.
4A#X\	.	.	8cc#\L	.	8cc#\	.	4A#X\	De	.	4cc#\	de	.	4r	.	4r	.
.	.	.	8ff#\J	.	8ff#\J	.	.	.	.	.	.	.	.	.	.	.
!LO:LB:g=original	!	!	!	!	!	!	!	!	!	!	!	!	!	!	!	!
=27	=27	=27	=27	=27	=27	=27	=27	=27	=27	=27	=27	=27	=27	=27	=27	=27
4B\	.	.	8dd\L	.	8dd\L	.	(4B\	De-	.	2dd\	De-	.	4r	.	4r	.
.	.	.	8ff#\J	.	8ff#\	.	.	.	.	.	.	.	.	.	.	.
*	*	*	*	*	*	*	*	*	*	*	*	*	*tremolo	*	*	*
4D\	.	.	8b/L	.	8b\	.	4D\)	.	.	.	.	.	8f#/L	.	8f#/L	.
.	.	.	8bb\J	.	8bb\	.	.	.	.	.	.	.	8f#/	.	8f#/	.
4F#\	#	.	8aa#X\L	.	8aa#X\	.	4F#\	-o	.	4cc#\	-o	.	8f#/	.	8f#/	.
.	.	.	8ee\J	.	8ee\J	.	.	.	.	.	.	.	8f#/J	.	8f#/J	.
*	*	*	*	*	*	*	*	*	*	*	*	*	*Xtremolo	*	*	*
=28	=28	=28	=28	=28	=28	=28	=28	=28	=28	=28	=28	=28	=28	=28	=28	=28
4BB/	.	.	8dd\L	.	8dd\L	.	4BB/	lu-	.	4dd\	lu-	.	2f#/	.	2f#/	.
.	.	.	8ff#\J	.	8ff#\	.	.	.	.	.	.	.	.	.	.	.
4B\	.	.	8b\L	.	8b\	.	4B\	-men	.	4dd\	-men	.	.	.	.	.
.	.	.	8ff#\J	.	8ff#\	.	.	.	.	.	.	.	.	.	.	.
4A#X\	.	.	8cc#\L	.	8cc#\	.	4A#X\	de	.	4cc#\	de	.	4r	.	4r	.
.	.	.	8ff#\J	.	8ff#\J	.	.	.	.	.	.	.	.	.	.	.
=29	=29	=29	=29	=29	=29	=29	=29	=29	=29	=29	=29	=29	=29	=29	=29	=29
4.B\	.	.	8dd\L	.	8dd\L	.	4.B\	lu-	.	4.dd\	lu-	.	2.r	.	2.r	.
.	.	.	8ff#\J	.	8ff#\	.	.	.	.	.	.	.	.	.	.	.
.	.	.	8b/L	.	8b\	.	.	.	.	.	.	.	.	.	.	.
8D\	.	.	8bb\J	.	8bb\	.	8D\	-mi-	.	8dd\	-mi-	.	.	.	.	.
4F#\	#	.	8aa#X\L	.	8aa#X\	.	4F#\	-ne	.	4cc#\	-ne	.	.	.	.	.
.	.	.	8ee\J	.	8ee\J	.	.	.	.	.	.	.	.	.	.	.
!	!	!	!	!	!	!	!	!	!	!LO:LB:g=original	!	!	!	!	!	!
=30	=30	=30	=30	=30	=30	=30	=30	=30	=30	=30	=30	=30	=30	=30	=30	=30
2B\	.	.	8dd\L	.	8dd\L	.	2B\	De-	.	2dd\	De-	.	2.r	.	2.r	.
.	.	.	8gg\	.	8gg\	.	.	.	.	.	.	.	.	.	.	.
.	.	.	8ff#\	.	8ff#\	.	.	.	.	.	.	.	.	.	.	.
.	.	.	8gg\	.	8gg\	.	.	.	.	.	.	.	.	.	.	.
4A\	.	.	8cc#\	.	8cc#\	.	4An\	-um	.	4cc#\	-um	.	.	.	.	.
.	.	.	8ff#\J	.	8ff#\J	.	.	.	.	.	.	.	.	.	.	.
!	!	!	!	!	!	!	!LO:LB:g=original	!	!	!	!	!	!	!	!	!
=31	=31	=31	=31	=31	=31	=31	=31	=31	=31	=31	=31	=31	=31	=31	=31	=31
4G\	.	.	8b\L	.	8b\L	.	4G\	Ve-	.	4b\	ve-	.	2.r	.	2.r	.
.	.	.	8ee\	.	8ee\	.	.	.	.	.	.	.	.	.	.	.
8F#\L	.	.	8dd\	.	8dd\	.	8F#\	-rum	.	8a\	-rum	.	.	.	.	.
8E\J	.	.	8cc#\J	.	8cc#\	.	8E\	de	.	8g\	de	.	.	.	.	.
4D\	6	.	8b\L	.	8b\	.	4D\	de-	.	4f#/	de-	.	.	.	.	.
.	.	.	8f#\J	.	8f#\J	.	.	.	.	.	.	.	.	.	.	.
=32	=32	=32	=32	=32	=32	=32	=32	=32	=32	=32	=32	=32	=32	=32	=32	=32
4E\	.	.	8g/L	.	8g/L	.	4E\	-o	.	4b\	-o	.	8f#/L	.	8f#/L	.
.	.	.	8ee\J	.	8ee\	.	.	.	.	.	.	.	16f#/L	.	16f#/L	.
.	.	.	.	.	.	.	.	.	.	.	.	.	16f#/JJ	.	16f#/JJ	.
*	*	*	*	*	*	*	*	*	*	*	*	*	*tremolo	*	*	*
2F#\	.	.	8cc#\L	.	8cc#\	.	2F#\	Ve-	.	2a#X\	Ve-	.	8f#/L	.	8f#/L	.
.	.	.	8bb\J	.	8bb\	.	.	.	.	.	.	.	8f#/	.	8f#/	.
.	.	.	8cc#\L	.	8cc#\	.	.	.	.	.	.	.	8f#/	.	8f#/	.
.	.	.	8aa#X\J	.	8aa#X\J	.	.	.	.	.	.	.	8f#/J	.	8f#/J	.
*	*	*	*	*	*	*	*	*	*	*	*	*	*Xtremolo	*	*	*
=33	=33	=33	=33	=33	=33	=33	=33	=33	=33	=33	=33	=33	=33	=33	=33	=33
4BB/	.	.	8bb\L	.	8bb\L	.	4BB/	-ro	.	4b\	-ro	.	4f#/	.	4f#/	.
.	.	.	8dd\J	.	8dd\	.	.	.	.	.	.	.	.	.	.	.
4G\	3	.	8b\L	.	8b\	.	4G\	Ge-	.	4dd\	Ge-	.	4d/	.	4d/	.
.	.	.	8dd\J	.	8dd\	.	.	.	.	.	.	.	.	.	.	.
4G\	.	.	8g/L	.	8g\	.	4G\	-ni-	.	4dd\	-ni-	.	4d/	.	4d/	.
.	.	.	8dd\J	.	8dd\J	.	.	.	.	.	.	.	.	.	.	.
!	!	!	!LO:LB:g=original	!	!	!	!	!	!	!	!	!	!	!	!	!
!	!	!	!	!	!	!	!	!	!	!	!	!	!LO:LB:g=original	!	!	!
=34	=34	=34	=34	=34	=34	=34	=34	=34	=34	=34	=34	=34	=34	=34	=34	=34
4G\	.	.	8a\L	.	8a\L	.	(4G\	-tum	.	2ccn\	-tum	.	4d/	.	4d/	.
.	.	.	8ccn\J	.	8ccn\J	.	.	.	.	.	.	.	.	.	.	.
*	*	*	*	*	*	*	*	*	*	*	*	*	*tremolo	*	*	*
4F#\	.	.	8f#/L	.	8f#/L	.	4F#\)	.	.	.	.	.	8d/L	.	8d/L	.
.	.	.	8a/J	.	8a/J	.	.	.	.	.	.	.	8d/	.	8d/	.
4D\	.	.	8d/L	.	8d/L	.	4D\	non	.	4cc\	non	.	8d/	.	8d/	.
.	.	.	8cc\J	.	8cc\J	.	.	.	.	.	.	.	8d/J	.	8d/J	.
*	*	*	*	*	*	*	*	*	*	*	*	*	*Xtremolo	*	*	*
=35	=35	=35	=35	=35	=35	=35	=35	=35	=35	=35	=35	=35	=35	=35	=35	=35
4G\	.	.	8b\L	.	8b\L	.	(4G\	fac-	.	2b\	fa-	.	2d/	.	4d/	.
.	.	.	8dd\J	.	8dd\J	.	.	.	.	.	.	.	.	.	.	.
4BB/	.	.	8g/L	.	8g/L	.	4BB/)	.	.	.	.	.	.	.	4d/	.
.	.	.	8gg\	.	8gg\	.	.	.	.	.	.	.	.	.	.	.
4D\	.	.	8ff#\	.	8ff#\	.	4D/	-tum	.	4a\	-ctum	.	4r	.	4r	.
.	.	.	8ccn\J	.	8ccn\J	.	.	.	.	.	.	.	.	.	.	.
!	!	!	!	!	!	!	!	!	!	!	!	!	!	!	!LO:LB:g=original	!
=36	=36	=36	=36	=36	=36	=36	=36	=36	=36	=36	=36	=36	=36	=36	=36	=36
!	!	!	!	!	!LO:TX:t=P:problem=mixed beam	!	!	!	!	!	!	!	!	!	!	!
4r	.	.	8b/L	.	8b/L	.	4r	.	.	4r	.	.	4r	.	4r	.
.	.	.	8bb\J	.	8bb\	.	.	.	.	.	.	.	.	.	.	.
4G\	.	.	8gg\L	.	8gg\	.	4G\	con-	.	4dd\	con-	.	4d/	.	4d/	.
.	.	.	8dd\J	.	8dd\	.	.	.	.	.	.	.	.	.	.	.
4G\	.	.	8b/L	.	8b\	.	4G\	-ſub-	.	4dd\	-sub-	.	4d/	.	4d/	.
.	.	.	8g/J	.	8g\J	.	.	.	.	.	.	.	.	.	.	.
=37	=37	=37	=37	=37	=37	=37	=37	=37	=37	=37	=37	=37	=37	=37	=37	=37
4.F#\	.	.	8a/L	.	8a\L	.	4.F#\	-ſtan-	.	4.dd\	-stan-	.	4d/	.	4d/	.
.	.	.	8dd/J	.	8dd\	.	.	.	.	.	.	.	.	.	.	.
.	.	.	8ff#\L	.	8ff#\	.	.	.	.	.	.	.	8d/L	.	8d/L	.
8E\L	.	.	8gg\	.	8gg\	.	8E\	-ci-	.	8dd\	-ci-	.	8d/	.	8d/	.
8F#\	.	.	8aa\	.	8aa\	.	8F#\	-a-	.	8dd\	-a-	.	8d/	.	8d/	.
!	!	!	!	!	!	!	!	!	!	!LO:SIC:l:s=lem	!	!	!	!	!	!
8D\J	.	.	8ccn\J	.	8ccn\J	.	8D\	-lem	.	8dd\	-liem	.	8d/J	.	8d/J	.
!	!	!	!	!	!LO:LB:g=original	!	!	!	!	!	!	!	!	!	!	!
=38	=38	=38	=38	=38	=38	=38	=38	=38	=38	=38	=38	=38	=38	=38	=38	=38
4G\	.	.	8b\L	.	8b\L	.	(4G\	Pa-	.	2b\	pa-	.	2d/	.	2d/	.
!	!	!	!	!	!LO:TX:t=P:problem=dźwięk nieczytelny	!	!	!	!	!	!	!	!	!	!	!
.	.	.	8dd\J	.	8dd\Jyy	.	.	.	.	.	.	.	.	.	.	.
4BB/	.	.	8g/L	.	8g/L	.	4BB/)	.	.	.	.	.	.	.	.	.
.	.	.	8gg\	.	8gg\	.	.	.	.	.	.	.	.	.	.	.
4D/	.	.	8ff#\	.	8ff#\	.	4D/	-tri	.	4a\	-tri	.	4r	.	4r	.
.	.	.	8ccn\J	.	8ccn\J	.	.	.	.	.	.	.	.	.	.	.
!	!	!	!	!	!	!	!	!	!	!LO:LB:g=original	!	!	!	!	!	!
=39	=39	=39	=39	=39	=39	=39	=39	=39	=39	=39	=39	=39	=39	=39	=39	=39
2E\	.	.	8b\L	.	8b\L	.	2E\	per	.	2g/	per	.	2.r	.	2.r	.
.	.	.	8gg\J	.	8gg\	.	.	.	.	.	.	.	.	.	.	.
.	.	.	8ee\L	.	8ee\	.	.	.	.	.	.	.	.	.	.	.
.	.	.	8ccn\J	.	8ccn\	.	.	.	.	.	.	.	.	.	.	.
4Cn/	.	.	8a/L	.	8a\	.	4Cn/	quem	.	4g/	quem	.	.	.	.	.
.	.	.	8e/J	.	8e\J	.	.	.	.	.	.	.	.	.	.	.
!LO:LB:g=original	!	!	!	!	!	!	!LO:LB:g=original	!	!	!	!	!	!	!	!	!
=40	=40	=40	=40	=40	=40	=40	=40	=40	=40	=40	=40	=40	=40	=40	=40	=40
4.D/	.	.	8f#/L	.	8f#/L	.	4.D/	om-	.	4.f#/	om-	.	2.r	.	2.r	.
.	.	.	8dd\J	.	8dd\	.	.	.	.	.	.	.	.	.	.	.
.	.	.	8ff#\L	.	8ff#\	.	.	.	.	.	.	.	.	.	.	.
!LO:SIC:s=8Cn	!	!	!	!	!	!	!LO:SIC:s=8Cn	!	!	!	!	!	!	!	!	!
8C#/	.	.	8dd\J	.	8dd\	.	8C#/	-ni-	.	8f#/	-ni-	.	.	.	.	.
4BB/	.	.	8gg\L	.	8gg\	.	4BB/	-a	.	4g/	-a	.	.	.	.	.
.	.	.	8dd\J	.	8dd\J	.	.	.	.	.	.	.	.	.	.	.
=41	=41	=41	=41	=41	=41	=41	=41	=41	=41	=41	=41	=41	=41	=41	=41	=41
!	!	!	!	!	!LO:TX:t=P:problem=mixed beam	!	!LO:SIC:s=4Cn	!	!	!	!	!	!	!	!	!
4Cn/	.	.	8ee\L	.	8e\L	.	(4C#/	fa-	.	4r	.	.	4r	.	4r	.
.	.	.	8ccn\J	.	8ccn\	.	.	.	.	.	.	.	.	.	.	.
4D/	.	.	8a\L	.	8a\	.	4D/)	.	.	4f#/	fa-	.	8d/L	.	8d/L	.
.	.	.	8cc\J	.	8cc\	.	.	.	.	.	.	.	16d/L	.	16d/L	.
.	.	.	.	.	.	.	.	.	.	.	.	.	16d/JJ	.	16d/JJ	.
4DD/	.	.	8d/L	.	8d/	.	4D/	-cta	.	4f#/	-cta	.	8d/L	.	8d/L	.
.	.	.	8f#/J	.	8f#/J	.	.	.	.	.	.	.	8d/J	.	8d/J	.
=42	=42	=42	=42	=42	=42	=42	=42	=42	=42	=42	=42	=42	=42	=42	=42	=42
4GG/	.	.	8g/L	.	8g/L	.	4GG/	Sunt	.	4g\	sunt	.	4d/	.	4d/	.
.	.	.	8dd\J	.	8dd\	.	.	.	.	.	.	.	.	.	.	.
4B\	.	.	8b\L	.	8b\	.	4r	.	.	4r	.	.	4r	.	4r	.
.	.	.	8dd\J	.	8dd\J	.	.	.	.	.	.	.	.	.	.	.
4G\	.	.	8g/L	.	8g/L	.	4G\	qui	.	4dd\	qui	.	4r	.	4r	.
.	.	.	8bb\J	.	8bb\J	.	.	.	.	.	.	.	.	.	.	.
=43	=43	=43	=43	=43	=43	=43	=43	=43	=43	=43	=43	=43	=43	=43	=43	=43
4F#\	6|	.	8aa\L	.	8aa\L	.	4F#\	pro-	.	4dd\	pro-	.	2.r	.	2.r	.
.	.	.	8ff#X\J	.	8ff#\	.	.	.	.	.	.	.	.	.	.	.
4F#\	.	.	8dd#X\L	.	8dd#X\	.	4F#\	-pter	.	4dd#X\	-pter	.	.	.	.	.
.	.	.	8b\J	.	8b\	.	.	.	.	.	.	.	.	.	.	.
4F#\	.	.	8bb\L	.	8bb\	.	4F#\	nos	.	4dd#\	nos	.	.	.	.	.
.	.	.	8ff#\J	.	8ff#\J	.	.	.	.	.	.	.	.	.	.	.
!	!	!	!LO:LB:g=original	!	!	!	!	!	!	!	!	!	!	!	!	!
=44	=44	=44	=44	=44	=44	=44	=44	=44	=44	=44	=44	=44	=44	=44	=44	=44
!	!	!	!LO:TX:t=P:problem=mixed beam	!	!LO:TX:t=P:problem=mixed beam	!	!	!	!	!	!	!	!	!	!	!
4E\	n	.	8gg\L	.	8gg\L	.	4.E\	[[et	ho-	4.ee\	ho-	.	2.r	.	2.r	.
.	.	.	8e/	.	8e/	.	.	.	.	.	.	.	.	.	.	.
4E\	.	.	8g/	.	8g/	.	.	.	.	.	.	.	.	.	.	.
.	.	.	8b/J	.	8b/	.	8E\	pro-	-mi-	8ee\	-mi-	.	.	.	.	.
4E\	.	.	8ee\L	.	8ee/	.	4E\	-pter	-nes	4ee\	-nes	.	.	.	.	.
.	.	.	8b\J	.	8b/J	.	.	.	.	.	.	.	.	.	.	.
=45	=45	=45	=45	=45	=45	=45	=45	=45	=45	=45	=45	=45	=45	=45	=45	=45
4E\	#	.	8g#X/L	.	8g#X/L	.	4E\	no-	et	4ee\	et	.	4ee\	.	4ee\	.
.	.	.	8ee\J	.	8ee\J	.	.	.	.	.	.	.	.	.	.	.
4F#\	.	.	8a/L	.	8a/L	.	4F#X\	-stram	pro-	4ee\	pro-	.	8ee\L	.	8ee\L	.
.	.	.	8ee\J	.	8ee\J	.	.	.	.	.	.	.	8ee\	.	8ee\	.
4G#X\	.	.	8b\L	.	8b\L	.	4G#X\	sa-	-pter	4ee\	-pter	.	8ee\	.	8ee\	.
.	.	.	8ee\J	.	8ee\J	.	.	.	.	.	.	.	8ee\J	.	8ee\J	.
=46	=46	=46	=46	=46	=46	=46	=46	=46	=46	=46	=46	=46	=46	=46	=46	=46
4A\	.	.	8ccn\L	.	8ccn\L	.	4A\	-lu-	no-	4ccn\	nos-	.	4ee\	.	4ee\	.
.	.	.	8ee\	.	8ee\	.	.	.	.	.	.	.	.	.	.	.
4F#\	.	.	8aa\	.	8aa\	.	4F#\	-tem	-stram	4a\	-tram	.	4r	.	4r	.
.	.	.	8cccn\	.	8cccn\	.	.	.	.	.	.	.	.	.	.	.
4A\	.	.	8ff#\	.	8ff#\	.	4A\	des]]	sa-	4ff#\	sa-	.	4r	.	4r	.
.	.	.	8ee\J	.	8ee\J	.	.	.	.	.	.	.	.	.	.	.
=47	=47	=47	=47	=47	=47	=47	=47	=47	=47	=47	=47	=47	=47	=47	=47	=47
4B\	#	.	8dd#X\L	.	8dd#X\L	.	4B\	.	-lu-	4dd#X\	-lu-	.	2.r	.	2.r	.
.	.	.	8ff#\	.	8ff#\	.	.	.	.	.	.	.	.	.	.	.
4BB/	.	.	8b\	.	8b\	.	4BB/	.	-tem	4b\	-tem	.	.	.	.	.
.	.	.	8ff#\	.	8ff#\	.	.	.	.	.	.	.	.	.	.	.
4B\	.	.	8a\	.	8a\	.	4B\	.	des-	4ff#\	dec-	.	.	.	.	.
.	.	.	8ff#\J	.	8ff#\J	.	.	.	.	.	.	.	.	.	.	.
!	!	!	!	!	!	!	!	!	!	!LO:LB:g=original	!	!	!	!	!	!
=48	=48	=48	=48	=48	=48	=48	=48	=48	=48	=48	=48	=48	=48	=48	=48	=48
4.e\	3	.	8g/L	.	8g/L	.	4.e\	.	-cen-	4.gg\	-cen-	.	2.r	.	2.r	.
.	.	.	8bb\	.	8bb\	.	.	.	.	.	.	.	.	.	.	.
.	.	.	8gg\	.	8gg\	.	.	.	.	.	.	.	.	.	.	.
8d\L	.	.	8ff#\	.	8ff#\	.	8d\L	.	.	8ff#\L	.	.	.	.	.	.
8cn\	.	.	8ee\	.	8ee\	.	8cn\	.	.	8ee\	.	.	.	.	.	.
8B\J	.	.	8dd\J	.	8dd\J	.	8B\J	.	.	8dd\J	.	.	.	.	.	.
!	!	!	!	!	!LO:LB:g=original	!	!LO:LB:g=original	!	!	!	!	!	!	!	!	!
=49	=49	=49	=49	=49	=49	=49	=49	=49	=49	=49	=49	=49	=49	=49	=49	=49
4A\	-3	.	8ccn\L	.	8ccn\L	.	4A\	.	.	4ccn\	.	.	2.r	.	2.r	.
.	.	.	8ee\	.	8ee\	.	.	.	.	.	.	.	.	.	.	.
4F#\	6|	.	8dd#X\	.	8dd#X\	.	4F#\	.	.	4b\	-dit	.	.	.	.	.
.	.	.	8a\J	.	8a\	.	.	.	.	.	.	.	.	.	.	.
4E\	.	.	8g/L	.	8g\	.	4E\	.	.	4b\	des-	.	.	.	.	.
.	.	.	8ee\J	.	8ee\J	.	.	.	.	.	.	.	.	.	.	.
=50	=50	=50	=50	=50	=50	=50	=50	=50	=50	=50	=50	=50	=50	=50	=50	=50
4D#X/	6 5_	.	8f#/L	.	8f#/L	.	4D#X\	.	.	2b\	-cen-	.	2.r	.	2.r	.
.	.	.	8b/J	.	8b/J	.	.	.	.	.	.	.	.	.	.	.
4BB/	.	.	8dd#X\L	.	8dd#X\L	.	4BB/	.	.	.	.	.	.	.	.	.
.	.	.	8ff#\	.	8ff#\	.	.	.	.	.	.	.	.	.	.	.
4E\	.	.	8bb\	.	8bb\	.	4E\	.	-dit	4b\	-dit	.	.	.	.	.
.	.	.	8ee\J	.	8ee\J	.	.	.	.	.	.	.	.	.	.	.
=51	=51	=51	=51	=51	=51	=51	=51	=51	=51	=51	=51	=51	=51	=51	=51	=51
4A\	6 5	.	8ff#\L	.	8ff#\L	.	4A\	.	de	4ee\	de	.	2.r	.	2.r	.
.	.	.	8a/J	.	8a/J	.	.	.	.	.	.	.	.	.	.	.
4B\	.	.	8g/L	.	8g/L	.	2B\	.	Ce-	2dd#X\	ce-	.	.	.	.	.
.	.	.	8ee\J	.	8ee\J	.	.	.	.	.	.	.	.	.	.	.
4BB/	# 4:3	.	8f#/L	.	8f#/L	.	.	.	.	.	.	.	.	.	.	.
.	.	.	8dd#X\J	.	8dd#X\J	.	.	.	.	.	.	.	.	.	.	.
!LO:LB:g=original	!	!	!	!	!	!	!	!	!	!	!	!	!	!	!	!
=52	=52	=52	=52	=52	=52	=52	=52	=52	=52	=52	=52	=52	=52	=52	=52	=52
!	!	!	!	!	!	!	!LO:SIC:l:s=lis	!	!	!	!	!	!	!	!	!
8E\L	n	.	8ee\L	.	8ee\L	.	2E\	.	-los	4ee\	-lis	.	2.r	.	2.r	.
8B\	.	.	8bJ	.	8b\J	.	.	.	.	.	.	.	.	.	.	.
8G\	.	.	8g/L	.	8g/L	.	.	.	.	4r	.	.	.	.	.	.
8E\	.	.	8e/J	.	8e/J	.	.	.	.	.	.	.	.	.	.	.
!	!	!	!LO:TX:t=P:problem=mixed beam	!	!LO:TX:t=P:problem=mixed beam	!	!	!	!	!	!	!	!	!	!	!
8B\	.	.	8b\L	.	8b\L	.	4r	.	.	4r	.	.	.	.	.	.
8BB/J	.	.	8B/J	.	8B/J	.	.	.	.	.	.	.	.	.	.	.
=53	=53	=53	=53	=53	=53	=53	=53	=53	=53	=53	=53	=53	=53	=53	=53	=53
2E\	.	.	2e/	.	2e/	.	2.r	.	.	2.r	.	.	2.r	.	2.r	.
4r	.	.	4r	.	4r	.	.	.	.	.	.	.	.	.	.	.
!	!	!	!LO:LB:g=original	!	!	!	!	!	!	!	!	!	!	!	!	!
!	!	!	!	!	!	!	!	!	!	!	!	!	!LO:LB:g=original	!	!	!
=54||	=54||	=54||	=54||	=54||	=54||	=54||	=54||	=54||	=54||	=54||	=54||	=54||	=54||	=54||	=54||	=54||
*k[f#,cn]	*	*	*yyk[f#]	*	*k[f#]	*	*k[f#]	*	*	*k[f#]	*	*	*yyk[f#]	*	*yyk[f#]	*
*M4/4	*	*	*yyM4/4	*	*M4/4	*	*M4/4	*	*	*M4/4	*	*	*yyM4/4	*	*yyM4/4	*
*met(c)	*	*	*yymet(c)	*	*met(c)	*	*met(c)	*	*	*met(c)	*	*	*yymet(c)	*	*yymet(c)	*
!	!	!	!	!	!LO:TX:b:t=Et incarnatus	!	!	!	!	!	!	!	!	!	!	!
!LO:TX:b:t=Et incarnatus	!	!	!LO:TX:b:t=Tacet	!	!LO:TX:a:t=Tarde	!	!	!	!	!	!	!	!	!	!	!
!LO:TX:a:t=Tarde. Solo	!	!	!LO:TX:a:t=Et in Carnatus Solo	!	!LO:TX:a:t=Oboa vel Violino Solo	!	!LO:TX:a:t=Et in Carnatus Ta Cet	!	!	!	!	!	!LO:TX:b:t=Etincarnatus Ta Cet || Etresurecsit\nVerte	!	!LO:TX:a:t=Etincarna&colon; Ta Cet	!
8E\L	.	.	1ryy	.	8ee\	.	1ryy	.	.	1r	.	.	1ryy	.	1ryy	.
8F#\	.	.	.	.	4ee\	.	.	.	.	.	.	.	.	.	.	.
8G\	.	.	.	.	.	.	.	.	.	.	.	.	.	.	.	.
8D#X\J	.	.	.	.	8b\	.	.	.	.	.	.	.	.	.	.	.
.	.	.	.	.	8qqa/	.	.	.	.	.	.	.	.	.	.	.
4E\	.	.	.	.	8g/L	.	.	.	.	.	.	.	.	.	.	.
.	.	.	.	.	(16f#/L	.	.	.	.	.	.	.	.	.	.	.
.	.	.	.	.	16g/JJ)	.	.	.	.	.	.	.	.	.	.	.
8r	.	.	.	.	8e/L	.	.	.	.	.	.	.	.	.	.	.
8Dn\	.	.	.	.	8b/J	.	.	.	.	.	.	.	.	.	.	.
=55	=55	=55	=55	=55	=55	=55	=55	=55	=55	=55	=55	=55	=55	=55	=55	=55
!	!	!	!	!	!LO:TX:t=P:problem=klamra łukowa, kropka zamiast numeru	!	!	!	!	!	!	!	!	!	!	!
8C/	.	.	1ryy	.	24ee\LL	.	1ryy	.	.	1r	.	.	1ryy	.	1ryy	.
.	.	.	.	.	24dd#X\	.	.	.	.	.	.	.	.	.	.	.
.	.	.	.	.	24ee\JJ	.	.	.	.	.	.	.	.	.	.	.
!	!	!	!	!	!LO:TX:t=P:problem=klamra łukowa, kropka zamiast numeru	!	!	!	!	!	!	!	!	!	!	!
8r	.	.	.	.	24gg\LL	.	.	.	.	.	.	.	.	.	.	.
.	.	.	.	.	24ff#\	.	.	.	.	.	.	.	.	.	.	.
.	.	.	.	.	24ee\JJ	.	.	.	.	.	.	.	.	.	.	.
!	!	!	!	!	!LO:TX:t=P:problem=klamra łukowa, kropka zamiast numeru	!	!	!	!	!	!	!	!	!	!	!
8AA#X/	.	.	.	.	24ee\LL	.	.	.	.	.	.	.	.	.	.	.
.	.	.	.	.	24dd#\	.	.	.	.	.	.	.	.	.	.	.
.	.	.	.	.	24ee\JJ	.	.	.	.	.	.	.	.	.	.	.
!	!	!	!	!	!LO:TX:t=P:problem=klamra łukowa, kropka zamiast numeru	!	!	!	!	!	!	!	!	!	!	!
8r	.	.	.	.	24ccc#X\LL	.	.	.	.	.	.	.	.	.	.	.
.	.	.	.	.	24aa#X\	.	.	.	.	.	.	.	.	.	.	.
.	.	.	.	.	24ee\JJ	.	.	.	.	.	.	.	.	.	.	.
.	.	.	.	.	8qqee/	.	.	.	.	.	.	.	.	.	.	.
16r	.	.	.	.	8.dd#X\L	.	.	.	.	.	.	.	.	.	.	.
16.BB/LL	#_	.	.	.	.	.	.	.	.	.	.	.	.	.	.	.
32D#X/K	.	.	.	.	.	.	.	.	.	.	.	.	.	.	.	.
16F#/JJ	.	.	.	.	16cc#X\Jk	.	.	.	.	.	.	.	.	.	.	.
8B\L	.	.	.	.	8b/L	.	.	.	.	.	.	.	.	.	.	.
8A\J	.	.	.	.	8bb\J	.	.	.	.	.	.	.	.	.	.	.
!	!	!	!	!	!LO:LB:g=original	!	!	!	!	!	!	!	!	!	!	!
=56	=56	=56	=56	=56	=56	=56	=56	=56	=56	=56	=56	=56	=56	=56	=56	=56
4G#X\	.	.	1ryy	.	(32bb\KLL	.	1ryy	.	.	1r	.	.	1ryy	.	1ryy	.
.	.	.	.	.	16.gg#X\JJ)	.	.	.	.	.	.	.	.	.	.	.
.	.	.	.	.	(32ffn\KLL	.	.	.	.	.	.	.	.	.	.	.
.	.	.	.	.	16.ee\JJ)	.	.	.	.	.	.	.	.	.	.	.
8r	.	.	.	.	(32ff\KLL	.	.	.	.	.	.	.	.	.	.	.
.	.	.	.	.	16.dd\JJ)	.	.	.	.	.	.	.	.	.	.	.
8E\	#3	.	.	.	(32cc\KLL	.	.	.	.	.	.	.	.	.	.	.
.	.	.	.	.	16.b\JJ)	.	.	.	.	.	.	.	.	.	.	.
8A\L	.	.	.	.	8cc\L	.	.	.	.	.	.	.	.	.	.	.
.	.	.	.	.	8qqb/	.	.	.	.	.	.	.	.	.	.	.
8B\	.	.	.	.	8a\J	.	.	.	.	.	.	.	.	.	.	.
8c\	.	.	.	.	8r	.	.	.	.	.	.	.	.	.	.	.
8A\J	.	.	.	.	8aa\	.	.	.	.	.	.	.	.	.	.	.
=57	=57	=57	=57	=57	=57	=57	=57	=57	=57	=57	=57	=57	=57	=57	=57	=57
4F#\	-5	.	1ryy	.	(32aa\KLL	.	1ryy	.	.	1r	.	.	1ryy	.	1ryy	.
.	.	.	.	.	16.ff#\)	.	.	.	.	.	.	.	.	.	.	.
.	.	.	.	.	(32ee\K	.	.	.	.	.	.	.	.	.	.	.
.	.	.	.	.	16.dd\JJ)	.	.	.	.	.	.	.	.	.	.	.
8r	.	.	.	.	(32ee\KLL	.	.	.	.	.	.	.	.	.	.	.
.	.	.	.	.	16.cc\JJ)	.	.	.	.	.	.	.	.	.	.	.
8D\	.	.	.	.	(32b/KLL	.	.	.	.	.	.	.	.	.	.	.
.	.	.	.	.	16.a/JJ)	.	.	.	.	.	.	.	.	.	.	.
8G\L	.	.	.	.	8b/L	.	.	.	.	.	.	.	.	.	.	.
.	.	.	.	.	8qqa/	.	.	.	.	.	.	.	.	.	.	.
8A\	.	.	.	.	8g/J	.	.	.	.	.	.	.	.	.	.	.
8B\	.	.	.	.	8r	.	.	.	.	.	.	.	.	.	.	.
8G\J	.	.	.	.	8b\	.	.	.	.	.	.	.	.	.	.	.
!LO:LB:g=original	!	!	!	!	!	!	!	!	!	!	!	!	!	!	!	!
=58	=58	=58	=58	=58	=58	=58	=58	=58	=58	=58	=58	=58	=58	=58	=58	=58
8A\L	.	.	1ryy	.	(16cc\LL	.	1ryy	.	.	1r	.	.	1ryy	.	1ryy	.
.	.	.	.	.	16b\	.	.	.	.	.	.	.	.	.	.	.
8G\	.	.	.	.	16cc\)	.	.	.	.	.	.	.	.	.	.	.
.	.	.	.	.	16cc#X\JJ	.	.	.	.	.	.	.	.	.	.	.
8F#\	.	.	.	.	(16dd\LL	.	.	.	.	.	.	.	.	.	.	.
.	.	.	.	.	16cc#\	.	.	.	.	.	.	.	.	.	.	.
8B\J	.	.	.	.	16dd\)	.	.	.	.	.	.	.	.	.	.	.
.	.	.	.	.	16dd#X\JJ	.	.	.	.	.	.	.	.	.	.	.
8E\L	.	.	.	.	(16ee\LL	.	.	.	.	.	.	.	.	.	.	.
.	.	.	.	.	16ff#\	.	.	.	.	.	.	.	.	.	.	.
8D\	.	.	.	.	16gg\	.	.	.	.	.	.	.	.	.	.	.
.	.	.	.	.	16gg#X\JJ	.	.	.	.	.	.	.	.	.	.	.
8C\	.	.	.	.	16aa\LL	.	.	.	.	.	.	.	.	.	.	.
.	.	.	.	.	16aa#X\)	.	.	.	.	.	.	.	.	.	.	.
8BB\J	.	.	.	.	16bb\	.	.	.	.	.	.	.	.	.	.	.
.	.	.	.	.	16ff#\JJ	.	.	.	.	.	.	.	.	.	.	.
=59	=59	=59	=59	=59	=59	=59	=59	=59	=59	=59	=59	=59	=59	=59	=59	=59
!	!	!	!	!	!LO:TX:t=P:problem=klamra łukowa, kropka zamiast numeru	!	!	!	!	!	!	!	!	!	!	!
8E\L	.	.	1ryy	.	24gg\LL	.	1ryy	.	.	2r	.	.	1ryy	.	1ryy	.
.	.	.	.	.	24ff#\	.	.	.	.	.	.	.	.	.	.	.
.	.	.	.	.	24ee\JJ	.	.	.	.	.	.	.	.	.	.	.
!	!	!	!	!	!LO:TX:t=P:problem=klamra łukowa, kropka zamiast numeru	!	!	!	!	!	!	!	!	!	!	!
8A\	.	.	.	.	24ccc\LL	.	.	.	.	.	.	.	.	.	.	.
.	.	.	.	.	24ee\	.	.	.	.	.	.	.	.	.	.	.
.	.	.	.	.	24ff#\JJ	.	.	.	.	.	.	.	.	.	.	.
8B\	.	.	.	.	4ff#\	.	.	.	.	.	.	.	.	.	.	.
8BB/J	.	.	.	.	.	.	.	.	.	.	.	.	.	.	.	.
8E;;\L	.	.	.	.	4eeT\	.	.	.	.	8r	.	.	.	.	.	.
!	!	!LO:DY:a:t=p&colon;	!	!	!	!	!	!	!	!	!	!	!	!	!	!
8F#\	.	p	.	.	.	.	.	.	.	8ee\	Et	.	.	.	.	.
!	!	!	!	!	!LO:TX:t=P:problem=2 fermaty, błąd wyświetlania Verovio	!	!	!	!	!	!	!	!	!	!	!
8G\	.	.	.	.	4r;;	.	.	.	.	8ee\	in-	.	.	.	.	.
8D#X\J	.	.	.	.	.	.	.	.	.	8b\	-car-	.	.	.	.	.
=60	=60	=60	=60	=60	=60	=60	=60	=60	=60	=60	=60	=60	=60	=60	=60	=60
.	.	.	.	.	.	.	.	.	.	8qqa/	.	.	.	.	.	.
!	!	!	!	!	!	!LO:DY:a:t=p&colon;	!	!	!	!	!	!	!	!	!	!
8E\L	.	.	1ryy	.	8ee\	p	1ryy	.	.	8.g/	-na-	.	1ryy	.	1ryy	.
8F#\	.	.	.	.	4ee\	.	.	.	.	.	.	.	.	.	.	.
.	.	.	.	.	.	.	.	.	.	16f#/	-tus	.	.	.	.	.
8G\	.	.	.	.	.	.	.	.	.	8e/	est	.	.	.	.	.
8D#X\J	.	.	.	.	8b\	.	.	.	.	8b\	de	.	.	.	.	.
!	!	!	!	!	!LO:TX:t=P:problem=klamra łukowa, kropka zamiast numeru	!	!	!	!	!	!	!	!	!	!	!
!	!	!	!	!	!	!	!	!	!	!LO:LB:g=original	!	!	!	!	!	!
4E\	.	.	.	.	24g/LL	.	.	.	.	8b\L	Spi-	.	.	.	.	.
.	.	.	.	.	24f#/	.	.	.	.	.	.	.	.	.	.	.
.	.	.	.	.	24e/JJ	.	.	.	.	.	.	.	.	.	.	.
.	.	.	.	.	.	.	.	.	.	16qqee/LL	.	.	.	.	.	.
.	.	.	.	.	.	.	.	.	.	16qqff#/JJ	.	.	.	.	.	.
.	.	.	.	.	8bb\L	.	.	.	.	8gg\J	.	.	.	.	.	.
4AA/	.	.	.	.	8aa\	.	.	.	.	8ff#\	-ri-	.	.	.	.	.
.	.	.	.	.	8gg\J	.	.	.	.	8ee\	-tu	.	.	.	.	.
=61	=61	=61	=61	=61	=61	=61	=61	=61	=61	=61	=61	=61	=61	=61	=61	=61
.	.	.	.	.	8qqgg/	.	.	.	.	.	.	.	.	.	.	.
8r	.	.	1ryy	.	4ff#\	.	1ryy	.	.	4dd#Xt\	San-	.	1ryy	.	1ryy	.
!	!	!	!	!	!	!	!	!	!	!	!	!	!	!	!	!
8BB/L	.	.	.	.	.	.	.	.	.	.	.	.	.	.	.	.
8B\	.	.	.	.	4r	.	.	.	.	8b\	-cto	.	.	.	.	.
8A\J	.	.	.	.	.	.	.	.	.	8r	.	.	.	.	.	.
8G\L	.	.	.	.	2r	.	.	.	.	4.ddn\	Ex	.	.	.	.	.
8A\	.	.	.	.	.	.	.	.	.	.	.	.	.	.	.	.
8B\	.	.	.	.	.	.	.	.	.	.	.	.	.	.	.	.
8c\J	.	.	.	.	.	.	.	.	.	8gg\	ma-	.	.	.	.	.
!	!	!	!	!	!LO:LB:g=original	!	!	!	!	!	!	!	!	!	!	!
=62	=62	=62	=62	=62	=62	=62	=62	=62	=62	=62	=62	=62	=62	=62	=62	=62
!LO:TX:t=P:problem=mixed beam	!	!	!	!	!	!	!	!	!	!	!	!	!	!	!	!
.	.	.	.	.	.	.	.	.	.	8qqgg/	.	.	.	.	.	.
8d\L	.	.	1ryy	.	4.dd\	.	1ryy	.	.	4ff#\	-ri-	.	1ryy	.	1ryy	.
8D/J	.	.	.	.	.	.	.	.	.	.	.	.	.	.	.	.
4r	.	.	.	.	.	.	.	.	.	8ff#\	-a	.	.	.	.	.
.	.	.	.	.	8gg\	.	.	.	.	8ee\	Ma-	.	.	.	.	.
.	.	.	.	.	8qqgg/	.	.	.	.	.	.	.	.	.	.	.
8r	.	.	.	.	4.ff#\	.	.	.	.	4dd\	-ri-	.	.	.	.	.
8D\L	.	.	.	.	.	.	.	.	.	.	.	.	.	.	.	.
8F#\	.	.	.	.	.	.	.	.	.	4cc\	-a	.	.	.	.	.
8D\J	.	.	.	.	8a/	.	.	.	.	.	.	.	.	.	.	.
=63	=63	=63	=63	=63	=63	=63	=63	=63	=63	=63	=63	=63	=63	=63	=63	=63
.	.	.	.	.	.	.	.	.	.	8qqcc/	.	.	.	.	.	.
8G\L	.	.	1ryy	.	8.gT/L	.	1ryy	.	.	8.b\	Vir-	.	1ryy	.	1ryy	.
8D\	.	.	.	.	.	.	.	.	.	.	.	.	.	.	.	.
.	.	.	.	.	16f#/Jk	.	.	.	.	16a\	-gi-	.	.	.	.	.
8F#\	.	.	.	.	8f#/	.	.	.	.	8a\	-ne	.	.	.	.	.
8D\J	.	.	.	.	8r	.	.	.	.	8a\	et	.	.	.	.	.
8G\L	.	.	.	.	2r	.	.	.	.	4b-X\	ho-	.	.	.	.	.
8Fn\	.	.	.	.	.	.	.	.	.	.	.	.	.	.	.	.
8E\	.	.	.	.	.	.	.	.	.	4cc#X\	-mo	.	.	.	.	.
8E-X\J	.	.	.	.	.	.	.	.	.	.	.	.	.	.	.	.
=64	=64	=64	=64	=64	=64	=64	=64	=64	=64	=64	=64	=64	=64	=64	=64	=64
8D/L	.	.	1ryy	.	1r	.	1ryy	.	.	8dd\L	ho-	.	1ryy	.	1ryy	.
8Cn/	.	.	.	.	.	.	.	.	.	16een\L	.	.	.	.	.	.
.	.	.	.	.	.	.	.	.	.	16ff#\JJ	.	.	.	.	.	.
8BB/	.	.	.	.	.	.	.	.	.	8gg\	.	.	.	.	.	.
8C/J	.	.	.	.	.	.	.	.	.	8cc\	-mo	.	.	.	.	.
!	!	!	!	!	!	!	!	!	!	!LO:LB:g=original	!	!	!	!	!	!
.	.	.	.	.	.	.	.	.	.	8qqb/	.	.	.	.	.	.
8D/L	.	.	.	.	.	.	.	.	.	4.a\	fa-	.	.	.	.	.
8C/	.	.	.	.	.	.	.	.	.	.	.	.	.	.	.	.
8D/	.	.	.	.	.	.	.	.	.	.	.	.	.	.	.	.
8DD/J	.	.	.	.	.	.	.	.	.	8g\	-ctus	.	.	.	.	.
!LO:LB:g=original	!	!	!	!	!	!	!	!	!	!	!	!	!	!	!	!
=65	=65	=65	=65	=65	=65	=65	=65	=65	=65	=65	=65	=65	=65	=65	=65	=65
!	!	!	!	!	!	!LO:DY:a:t=for	!	!	!	!	!	!	!	!	!	!
8G\L	8	.	1ryy	.	8gg\	f	1ryy	.	.	4g\	est	.	1ryy	.	1ryy	.
8A\	.	.	.	.	4gg\	.	.	.	.	.	.	.	.	.	.	.
8B\	.	.	.	.	.	.	.	.	.	4r	.	.	.	.	.	.
8F#\J	.	.	.	.	8dd\	.	.	.	.	.	.	.	.	.	.	.
.	.	.	.	.	8qqcc/	.	.	.	.	.	.	.	.	.	.	.
4G\	.	.	.	.	8b\L	.	.	.	.	2r	.	.	.	.	.	.
.	.	.	.	.	16a\L	.	.	.	.	.	.	.	.	.	.	.
.	.	.	.	.	16b\JJ	.	.	.	.	.	.	.	.	.	.	.
!	!	!	!	!	!	!	!	!	!	!	!	!	!	!	!	!
8r	.	.	.	.	8g/L	.	.	.	.	.	.	.	.	.	.	.
8F#\	.	.	.	.	8dd\J	.	.	.	.	.	.	.	.	.	.	.
=66	=66	=66	=66	=66	=66	=66	=66	=66	=66	=66	=66	=66	=66	=66	=66	=66
!	!	!	!	!	!LO:TX:t=P:problem=klamra łukowa, kropka zamiast numeru	!	!	!	!	!	!	!	!	!	!	!
8E\	.	.	1ryy	.	24gg\LL	.	1ryy	.	.	1r	.	.	1ryy	.	1ryy	.
.	.	.	.	.	24ff#\	.	.	.	.	.	.	.	.	.	.	.
.	.	.	.	.	24gg\JJ	.	.	.	.	.	.	.	.	.	.	.
!	!	!	!	!	!LO:TX:t=P:problem=klamra łukowa, kropka zamiast numeru	!	!	!	!	!	!	!	!	!	!	!
8r	.	.	.	.	24bb\LL	.	.	.	.	.	.	.	.	.	.	.
.	.	.	.	.	24aa\	.	.	.	.	.	.	.	.	.	.	.
.	.	.	.	.	24gg\JJ	.	.	.	.	.	.	.	.	.	.	.
!	!	!	!	!	!LO:TX:t=P:problem=klamra łukowa, kropka zamiast numeru	!	!	!	!	!	!	!	!	!	!	!
8C#X/	.	.	.	.	24gg\LL	.	.	.	.	.	.	.	.	.	.	.
.	.	.	.	.	24ff#\	.	.	.	.	.	.	.	.	.	.	.
.	.	.	.	.	24gg\JJ	.	.	.	.	.	.	.	.	.	.	.
!	!	!	!	!	!LO:TX:t=P:problem=klamra łukowa, kropka zamiast numeru	!	!	!	!	!	!	!	!	!	!	!
8r	.	.	.	.	24eee\LL	.	.	.	.	.	.	.	.	.	.	.
.	.	.	.	.	24ccc#X\	.	.	.	.	.	.	.	.	.	.	.
.	.	.	.	.	24gg\JJ	.	.	.	.	.	.	.	.	.	.	.
.	.	.	.	.	8qqgg/	.	.	.	.	.	.	.	.	.	.	.
8D/L	.	.	.	.	8.ff#\L	.	.	.	.	.	.	.	.	.	.	.
8Cn/	.	.	.	.	.	.	.	.	.	.	.	.	.	.	.	.
.	.	.	.	.	16ee\Jk	.	.	.	.	.	.	.	.	.	.	.
8BB/	.	.	.	.	8dd\L	.	.	.	.	.	.	.	.	.	.	.
!LO:TX:b:t=g	!	!	!	!	!	!	!	!	!	!	!	!	!	!	!	!
8GG/J	.	.	.	.	8ee\J	.	.	.	.	.	.	.	.	.	.	.
=67	=67	=67	=67	=67	=67	=67	=67	=67	=67	=67	=67	=67	=67	=67	=67	=67
!	!	!	!	!	!LO:TX:t=P:problem=klamra łukowa, kropka zamiast numeru	!	!	!	!	!	!	!	!	!	!	!
8AA/L	.	.	1ryy	.	24cc\LL	.	1ryy	.	.	1r	.	.	1ryy	.	1ryy	.
.	.	.	.	.	24b\	.	.	.	.	.	.	.	.	.	.	.
.	.	.	.	.	24a\JJ	.	.	.	.	.	.	.	.	.	.	.
8Cn/	.	.	.	.	(16aa'\LL	.	.	.	.	.	.	.	.	.	.	.
.	.	.	.	.	16gg'\JJ	.	.	.	.	.	.	.	.	.	.	.
8D/	.	.	.	.	16ff#'\LL	.	.	.	.	.	.	.	.	.	.	.
.	.	.	.	.	16ee'\	.	.	.	.	.	.	.	.	.	.	.
8F#/J	.	.	.	.	16dd'\	.	.	.	.	.	.	.	.	.	.	.
.	.	.	.	.	16cc'\JJ)	.	.	.	.	.	.	.	.	.	.	.
4G\	.	.	.	.	16b\LL	.	.	.	.	.	.	.	.	.	.	.
.	.	.	.	.	16dd\	.	.	.	.	.	.	.	.	.	.	.
.	.	.	.	.	16ee-X\	.	.	.	.	.	.	.	.	.	.	.
.	.	.	.	.	16een\JJ	.	.	.	.	.	.	.	.	.	.	.
4r	.	.	.	.	16ffn\LL	.	.	.	.	.	.	.	.	.	.	.
.	.	.	.	.	16ff#X\	.	.	.	.	.	.	.	.	.	.	.
.	.	.	.	.	16gg\	.	.	.	.	.	.	.	.	.	.	.
.	.	.	.	.	16cc\JJ	.	.	.	.	.	.	.	.	.	.	.
=68	=68	=68	=68	=68	=68	=68	=68	=68	=68	=68	=68	=68	=68	=68	=68	=68
!	!	!	!	!	!LO:TX:t=P:problem=klamra łukowa, kropka zamiast numeru	!	!	!	!	!	!	!	!	!	!	!
8G\L	.	.	1ryy	.	24b\LL	.	1ryy	.	.	2r	.	.	1ryy	.	1ryy	.
.	.	.	.	.	24dd\	.	.	.	.	.	.	.	.	.	.	.
.	.	.	.	.	24cc\JJ	.	.	.	.	.	.	.	.	.	.	.
!	!	!	!	!	!LO:TX:t=P:problem=klamra łukowa, kropka zamiast numeru	!	!	!	!	!	!	!	!	!	!	!
8c\	.	.	.	.	24b\LL	.	.	.	.	.	.	.	.	.	.	.
.	.	.	.	.	24a\	.	.	.	.	.	.	.	.	.	.	.
.	.	.	.	.	24g\JJ	.	.	.	.	.	.	.	.	.	.	.
8d\	.	.	.	.	4aT/	.	.	.	.	.	.	.	.	.	.	.
8D/J	.	.	.	.	.	.	.	.	.	.	.	.	.	.	.	.
!	!	!LO:DY:a:t=p&colon;	!	!	!	!	!	!	!	!	!	!	!	!	!	!
8G\L	.	p	.	.	4.g/	.	.	.	.	4.b\	Cru-	.	.	.	.	.
8GG/	.	.	.	.	.	.	.	.	.	.	.	.	.	.	.	.
8BB/	.	.	.	.	.	.	.	.	.	.	.	.	.	.	.	.
8GG/J	.	.	.	.	8g/	.	.	.	.	8b\	-ci-	.	.	.	.	.
=69	=69	=69	=69	=69	=69	=69	=69	=69	=69	=69	=69	=69	=69	=69	=69	=69
!LO:TX:t=P:problem=mixed beam	!	!	!	!	!	!	!	!	!	!	!	!	!	!	!	!
.	.	.	.	.	8qqa/	.	.	.	.	.	.	.	.	.	.	.
8DD/L	.	.	1ryy	.	8g/L	.	1ryy	.	.	8b\L	-fi-	.	1ryy	.	1ryy	.
8D\	.	.	.	.	8f#/J	.	.	.	.	8a\J	.	.	.	.	.	.
8F#\	.	.	.	.	4f#/	.	.	.	.	4a\	-xus	.	.	.	.	.
8D\J	.	.	.	.	.	.	.	.	.	.	.	.	.	.	.	.
!	!	!	!	!	!LO:LB:g=original	!	!	!	!	!	!	!	!	!	!	!
!	!	!	!	!	!LO:TX:t=P:problem=mixed beam	!	!	!	!	!	!	!	!	!	!	!
8A\L	.	.	.	.	(32d/KLL	.	.	.	.	8.cc\	e-	.	.	.	.	.
.	.	.	.	.	16.aa\)	.	.	.	.	.	.	.	.	.	.	.
8D\	.	.	.	.	(32ff#\K	.	.	.	.	.	.	.	.	.	.	.
.	.	.	.	.	16.cc\JJ)	.	.	.	.	.	.	.	.	.	.	.
.	.	.	.	.	.	.	.	.	.	16cc\	-li-	.	.	.	.	.
8F#\	.	.	.	.	32a/KLL	.	.	.	.	8cc\	-am	.	.	.	.	.
.	.	.	.	.	16.f#/	.	.	.	.	.	.	.	.	.	.	.
8D\J	.	.	.	.	32d/K	.	.	.	.	8cc\	pro	.	.	.	.	.
.	.	.	.	.	16.a/JJ	.	.	.	.	.	.	.	.	.	.	.
=70	=70	=70	=70	=70	=70	=70	=70	=70	=70	=70	=70	=70	=70	=70	=70	=70
.	.	.	.	.	8qqb/	.	.	.	.	8qqdd/	.	.	.	.	.	.
8G\L	.	.	1ryy	.	8a/L	.	1ryy	.	.	8cc\L	no-	.	1ryy	.	1ryy	.
16D\L	.	.	.	.	8g/J	.	.	.	.	8b\J	.	.	.	.	.	.
16BB\JJ	.	.	.	.	.	.	.	.	.	.	.	.	.	.	.	.
!	!	!	!	!	!LO:TX:t=P:problem=mixed beam	!	!	!	!	!	!	!	!	!	!	!
8GG/	.	.	.	.	16g/LL	.	.	.	.	8b\	-bis	.	.	.	.	.
.	.	.	.	.	(16dd\	.	.	.	.	.	.	.	.	.	.	.
8r	.	.	.	.	16ee\	.	.	.	.	8dd\	Sub	.	.	.	.	.
.	.	.	.	.	16ff#\JJ)	.	.	.	.	.	.	.	.	.	.	.
8r	.	.	.	.	16gg`\LL	.	.	.	.	8dd\	pon-	.	.	.	.	.
.	.	.	.	.	(16ff#\	.	.	.	.	.	.	.	.	.	.	.
8G\L	.	.	.	.	16gg\	.	.	.	.	16ee\LL	-ci-	.	.	.	.	.
.	.	.	.	.	16aa\JJ)	.	.	.	.	16ff#\JJ	.	.	.	.	.	.
8B\	.	.	.	.	8bb\L	.	.	.	.	8gg\	-o	.	.	.	.	.
8G\J	.	.	.	.	8bb\J	.	.	.	.	8gg\	pi-	.	.	.	.	.
=71	=71	=71	=71	=71	=71	=71	=71	=71	=71	=71	=71	=71	=71	=71	=71	=71
.	.	.	.	.	8qqccc/	.	.	.	.	.	.	.	.	.	.	.
8d\L	.	.	1ryy	.	8bb\L	.	1ryy	.	.	(8gg\L	-La-	.	1ryy	.	1ryy	.
8D\	.	.	.	.	8aa\J	.	.	.	.	8ff#\J)	.	.	.	.	.	.
8F#\	.	.	.	.	4aa\	.	.	.	.	4ff#\	-to	.	.	.	.	.
8D\J	.	.	.	.	.	.	.	.	.	.	.	.	.	.	.	.
8r	.	.	.	.	8r	.	.	.	.	4.ff#\	Pa-	.	.	.	.	.
8D#X\L	6_	.	.	.	8b/L	.	.	.	.	.	.	.	.	.	.	.
8D#\	.	.	.	.	8b/	.	.	.	.	.	.	.	.	.	.	.
8D#\J	.	.	.	.	8b/J	.	.	.	.	8a\	-ſsus	.	.	.	.	.
=72	=72	=72	=72	=72	=72	=72	=72	=72	=72	=72	=72	=72	=72	=72	=72	=72
.	.	.	.	.	.	.	.	.	.	8qqb/	.	.	.	.	.	.
8E/L	.	.	1ryy	.	4b\	.	1ryy	.	.	8a\L	pas-	.	1ryy	.	1ryy	.
8BB/	.	.	.	.	.	.	.	.	.	8g\J	.	.	.	.	.	.
8GG/	.	.	.	.	4r	.	.	.	.	4g\	-sus	.	.	.	.	.
8EE/J	.	.	.	.	.	.	.	.	.	.	.	.	.	.	.	.
!	!	!	!	!	!LO:TX:a:t=Da Capo	!	!	!	!	!	!	!	!	!	!	!
!	!	!	!	!	!	!	!	!	!	!LO:LB:g=original	!	!	!	!	!	!
4E\	6	.	.	.	2r	.	.	.	.	4.cc\	paſ-	.	.	.	.	.
4D\	6	.	.	.	.	.	.	.	.	.	.	.	.	.	.	.
.	.	.	.	.	.	.	.	.	.	8b\	-sus	.	.	.	.	.
!	!	!	!	!	!LO:LB:g=original	!	!	!	!	!	!	!	!	!	!	!
=73	=73	=73	=73	=73	=73	=73	=73	=73	=73	=73	=73	=73	=73	=73	=73	=73
!	!	!	!	!	!LO:TX:t=P:problem=brak taktu	!	!	!	!	!	!	!	!	!	!	!
4C/	6|	.	1ryy	.	1ryy	.	1ryy	.	.	4a#X\	et	.	1ryy	.	1ryy	.
8BB/L	#	.	.	.	.	.	.	.	.	4b\	se-	.	.	.	.	.
8C/J	6	.	.	.	.	.	.	.	.	.	.	.	.	.	.	.
!LO:TX:a:t=Da Capo	!	!	!	!	!	!	!	!	!	!	!	!	!	!	!	!
.	.	.	.	.	.	.	.	.	.	8qqg/	.	.	.	.	.	.
2BB;;/	#4r	.	.	.	.	.	.	.	.	4.f#/	-pul-	.	.	.	.	.
.	.	.	.	.	.	.	.	.	.	8e/	-tus	.	.	.	.	.
=74	=74	=74	=74	=74	=74	=74	=74	=74	=74	=74	=74	=74	=74	=74	=74	=74
8E\Lyy	.	.	1ryy	.	8ee\yy	.	1ryy	.	.	4e/	est	.	1ryy	.	1ryy	.
8F#\yy	.	.	.	.	4ee\yy	.	.	.	.	.	.	.	.	.	.	.
8G\yy	.	.	.	.	.	.	.	.	.	4r	.	.	.	.	.	.
8D#X\Jyy	.	.	.	.	8b\yy	.	.	.	.	.	.	.	.	.	.	.
.	.	.	.	.	8qqa/yy	.	.	.	.	.	.	.	.	.	.	.
4E\yy	.	.	.	.	8g/Lyy	.	.	.	.	2r	.	.	.	.	.	.
.	.	.	.	.	(16f#/Lyy	.	.	.	.	.	.	.	.	.	.	.
.	.	.	.	.	16g/JJ)yy	.	.	.	.	.	.	.	.	.	.	.
8ryy	.	.	.	.	8e/Lyy	.	.	.	.	.	.	.	.	.	.	.
8Dn\yy	.	.	.	.	8b/Jyy	.	.	.	.	.	.	.	.	.	.	.
=75	=75	=75	=75	=75	=75	=75	=75	=75	=75	=75	=75	=75	=75	=75	=75	=75
*	*	*	*	*	*Xtuplet	*	*	*	*	*	*	*	*	*	*	*
8C/yy	.	.	1ryy	.	24ee\LLyy	.	1ryy	.	.	1r	.	.	1ryy	.	1ryy	.
.	.	.	.	.	24dd#X\yy	.	.	.	.	.	.	.	.	.	.	.
.	.	.	.	.	24ee\JJyy	.	.	.	.	.	.	.	.	.	.	.
8ryy	.	.	.	.	24gg\LLyy	.	.	.	.	.	.	.	.	.	.	.
.	.	.	.	.	24ff#\yy	.	.	.	.	.	.	.	.	.	.	.
.	.	.	.	.	24ee\JJyy	.	.	.	.	.	.	.	.	.	.	.
8AA#X/yy	.	.	.	.	24ee\LLyy	.	.	.	.	.	.	.	.	.	.	.
.	.	.	.	.	24dd#\yy	.	.	.	.	.	.	.	.	.	.	.
.	.	.	.	.	24ee\JJyy	.	.	.	.	.	.	.	.	.	.	.
8ryy	.	.	.	.	24ccc#X\LLyy	.	.	.	.	.	.	.	.	.	.	.
.	.	.	.	.	24aa#X\yy	.	.	.	.	.	.	.	.	.	.	.
.	.	.	.	.	24ee\JJyy	.	.	.	.	.	.	.	.	.	.	.
.	.	.	.	.	8qqee/yy	.	.	.	.	.	.	.	.	.	.	.
16ryy	.	.	.	.	8.dd#X\Lyy	.	.	.	.	.	.	.	.	.	.	.
16.BB/LLyy	.	.	.	.	.	.	.	.	.	.	.	.	.	.	.	.
32D#X/Kyy	.	.	.	.	.	.	.	.	.	.	.	.	.	.	.	.
16F#/JJyy	.	.	.	.	16cc#X\Jkyy	.	.	.	.	.	.	.	.	.	.	.
8B\Lyy	.	.	.	.	8b\Lyy	.	.	.	.	.	.	.	.	.	.	.
8A\Jyy	.	.	.	.	8bb\Jyy	.	.	.	.	.	.	.	.	.	.	.
=76	=76	=76	=76	=76	=76	=76	=76	=76	=76	=76	=76	=76	=76	=76	=76	=76
4G#X\yy	.	.	1ryy	.	(y32bb\KLLyy	.	1ryy	.	.	1r	.	.	1ryy	.	1ryy	.
.	.	.	.	.	16.gg#X\JJ)yy	.	.	.	.	.	.	.	.	.	.	.
.	.	.	.	.	(32ffn\KLLyy	.	.	.	.	.	.	.	.	.	.	.
.	.	.	.	.	16.ee\JJ)yy	.	.	.	.	.	.	.	.	.	.	.
8ryy	.	.	.	.	(32ff\KLLyy	.	.	.	.	.	.	.	.	.	.	.
.	.	.	.	.	16.dd\JJ)yy	.	.	.	.	.	.	.	.	.	.	.
8E\yy	.	.	.	.	(32cc\KLLyy	.	.	.	.	.	.	.	.	.	.	.
.	.	.	.	.	16.b\JJ)yy	.	.	.	.	.	.	.	.	.	.	.
8A\Lyy	.	.	.	.	8cc\Lyy	.	.	.	.	.	.	.	.	.	.	.
.	.	.	.	.	8qqb/yy	.	.	.	.	.	.	.	.	.	.	.
8B\yy	.	.	.	.	8a\Jyy	.	.	.	.	.	.	.	.	.	.	.
8c\yy	.	.	.	.	8ryy	.	.	.	.	.	.	.	.	.	.	.
8A\Jyy	.	.	.	.	[y8aa\yy	.	.	.	.	.	.	.	.	.	.	.
=77	=77	=77	=77	=77	=77	=77	=77	=77	=77	=77	=77	=77	=77	=77	=77	=77
4F#\yy	.	.	1ryy	.	(y32aa\KLLyy]	.	1ryy	.	.	1r	.	.	1ryy	.	1ryy	.
.	.	.	.	.	16.ff#\)yy	.	.	.	.	.	.	.	.	.	.	.
.	.	.	.	.	(32ee\Kyy	.	.	.	.	.	.	.	.	.	.	.
.	.	.	.	.	16.dd\JJ)yy	.	.	.	.	.	.	.	.	.	.	.
8ryy	.	.	.	.	(32ee\KLLyy	.	.	.	.	.	.	.	.	.	.	.
.	.	.	.	.	16.cc\JJ)yy	.	.	.	.	.	.	.	.	.	.	.
8D\yy	.	.	.	.	(32b/KLLyy	.	.	.	.	.	.	.	.	.	.	.
.	.	.	.	.	16.a/JJ)yy	.	.	.	.	.	.	.	.	.	.	.
8G\Lyy	.	.	.	.	8b/Lyy	.	.	.	.	.	.	.	.	.	.	.
.	.	.	.	.	8qqa/yy	.	.	.	.	.	.	.	.	.	.	.
8A\yy	.	.	.	.	8g/Jyy	.	.	.	.	.	.	.	.	.	.	.
8B\yy	.	.	.	.	8ryy	.	.	.	.	.	.	.	.	.	.	.
8G\Jyy	.	.	.	.	8b\yy	.	.	.	.	.	.	.	.	.	.	.
=78	=78	=78	=78	=78	=78	=78	=78	=78	=78	=78	=78	=78	=78	=78	=78	=78
8A\Lyy	.	.	1r	.	(y16cc\LLyy	.	1ryy	.	.	1r	.	.	1ryy	.	1ryy	.
.	.	.	.	.	16b\yy	.	.	.	.	.	.	.	.	.	.	.
8G\yy	.	.	.	.	16cc\)yy	.	.	.	.	.	.	.	.	.	.	.
.	.	.	.	.	16cc#X\JJyy	.	.	.	.	.	.	.	.	.	.	.
8F#\yy	.	.	.	.	(16dd\LLyy	.	.	.	.	.	.	.	.	.	.	.
.	.	.	.	.	16cc#\yy	.	.	.	.	.	.	.	.	.	.	.
8B\Jyy	.	.	.	.	16dd\)yy	.	.	.	.	.	.	.	.	.	.	.
.	.	.	.	.	16dd#X\JJyy	.	.	.	.	.	.	.	.	.	.	.
8E\Lyy	.	.	.	.	(16ee\LLyy	.	.	.	.	.	.	.	.	.	.	.
.	.	.	.	.	16ff#\yy	.	.	.	.	.	.	.	.	.	.	.
8D\yy	.	.	.	.	16gg\yy	.	.	.	.	.	.	.	.	.	.	.
.	.	.	.	.	16gg#X\JJyy	.	.	.	.	.	.	.	.	.	.	.
8C\yy	.	.	.	.	16aa\LLyy	.	.	.	.	.	.	.	.	.	.	.
.	.	.	.	.	16aa#X\)yy	.	.	.	.	.	.	.	.	.	.	.
8BB\Jyy	.	.	.	.	16bb\yy	.	.	.	.	.	.	.	.	.	.	.
.	.	.	.	.	16ff#\JJyy	.	.	.	.	.	.	.	.	.	.	.
=79	=79	=79	=79	=79	=79	=79	=79	=79	=79	=79	=79	=79	=79	=79	=79	=79
!	!	!	!	!	!LO:TX:t=P:problem=klamra łukowa, kropka zamiast numeru	!	!	!	!	!	!	!	!	!	!	!
8E\Lyy	.	.	1ryy	.	24gg\LLyy	.	1ryy	.	.	1r	.	.	1ryy	.	1ryy	.
.	.	.	.	.	24ff#\yy	.	.	.	.	.	.	.	.	.	.	.
.	.	.	.	.	24ee\JJyy	.	.	.	.	.	.	.	.	.	.	.
8A\yy	.	.	.	.	24ccc\LLyy	.	.	.	.	.	.	.	.	.	.	.
.	.	.	.	.	24ee\yy	.	.	.	.	.	.	.	.	.	.	.
.	.	.	.	.	24ff#\JJyy	.	.	.	.	.	.	.	.	.	.	.
8B\yy	.	.	.	.	4ff#\yy	.	.	.	.	.	.	.	.	.	.	.
8BB\Jyy	.	.	.	.	.	.	.	.	.	.	.	.	.	.	.	.
8E;;\yy	.	.	.	.	4ee\yy	.	.	.	.	.	.	.	.	.	.	.
8ryy	.	.	.	.	.	.	.	.	.	.	.	.	.	.	.	.
4ryy	.	.	.	.	4r;;yy	.	.	.	.	.	.	.	.	.	.	.
!	!	!	!	!	!	!	!LO:LB:g=original	!	!	!	!	!	!LO:LB:g=original	!	!LO:LB:g=original	!
=80||	=80||	=80||	=80||	=80||	=80||	=80||	=80||	=80||	=80||	=80||	=80||	=80||	=80||	=80||	=80||	=80||
*k[f#c#]	*	*	*k[f#c#]	*	*k[f#c#]	*	*k[f#c#]	*	*	*k[f#c#]	*	*	*k[f#c#]	*	*k[f#c#]	*
*M2/4	*	*	*M2/4	*	*M2/4	*	*M2/4	*	*	*M2/4	*	*	*M2/4	*	*M2/4	*
!LO:TX:b:B:t=Et Resurrexit	!	!	!	!	!	!	!	!	!	!	!	!	!	!	!	!
!LO:TX:a:B:t=All[egr]o	!	!	!LO:TX:b:t=Et Resurresit	!	!LO:TX:b:t=Et Resurrexit	!	!	!	!	!	!	!	!	!	!LO:TX:b:t=Et resurecsit	!
!LO:TX:a:t=Tutti.	!	!	!LO:TX:a:B:t=Vivace	!	!LO:TX:a:t=Vivace	!	!	!	!	!LO:TX:a:B:t=All[egr]o&colon;	!	!	!LO:TX:a:B:t=Vivace	!	!LO:TX:a:B:t=All[egr]o&colon;	!
8r	.	.	8r	.	8r	.	8r	.	.	8r	.	.	4r	.	4r	.
8G\L	.	.	8gg\L	.	8gg\L	.	8G\	Et	.	8b\	Et	.	.	.	.	.
8A\	.	.	8gg\	.	8gg\	.	8A\	re-	.	8ccn\	re-	.	8r	.	8r	.
8A\J	.	.	8gg\J	.	8gg\J	.	8A\	-su-	.	8cc\	-sur-	.	16d/LL	.	16d/LL	.
.	.	.	.	.	.	.	.	.	.	.	.	.	16d/JJ	.	16d/JJ	.
=81	=81	=81	=81	=81	=81	=81	=81	=81	=81	=81	=81	=81	=81	=81	=81	=81
!LO:TX:t=P:problem=mixed beam	!	!	!	!	!	!	!	!	!	!	!	!	!	!	!	!
.	.	.	8qqaa/	.	8qqaa/	.	.	.	.	.	.	.	.	.	.	.
8B\L	.	.	8gg\L	.	8gg\L	.	8B\	-re-	.	8dd\	-re-	.	8d/L	.	8d/L	.
8cn\	.	.	16ff#\L	.	16ff#\L	.	8cn\	-xit	.	8ee\	-xit	.	16d/L	.	16d/L	.
.	.	.	16ee\JJ	.	16ee\JJ	.	.	.	.	.	.	.	16d/JJ	.	16d/JJ	.
8d\	.	.	8dd\L	.	8dd\L	.	8d\	ter-	.	8dd\	ter-	.	8d/L	.	8d/L	.
8D/J	.	.	8ccn\J	.	8ccn\J	.	16D/	-ci-	.	16ccn\	-ci-	.	8d/J	.	8d/J	.
.	.	.	.	.	.	.	16D/	-a	.	16cc\	-e	.	.	.	.	.
=82	=82	=82	=82	=82	=82	=82	=82	=82	=82	=82	=82	=82	=82	=82	=82	=82
!	!	!	!LO:SIC:s=8qccn	!	!LO:SIC:s=8qccn	!	!	!	!	!	!	!	!	!	!	!
.	.	.	8qqcc#/	.	8qqcc#/	.	.	.	.	.	.	.	.	.	.	.
8G\L	.	.	8b\L	.	8b\L	.	8G\L	di-	.	8b\L	Di-	.	4d/	.	4d/	.
8A\	.	.	16a\L	.	16a\L	.	8A\J	.	.	16a\L	.	.	.	.	.	.
.	.	.	16b\JJ	.	16b\JJ	.	.	.	.	16b\JJ	.	.	.	.	.	.
8B\	.	.	8g/L	.	8g/L	.	8B\	-e	.	8g\	-e	.	4r	.	4r	.
8D\J	.	.	16a/L	.	16a/L	.	8D\	Se-	.	16a\LL	Se-	.	.	.	.	.
.	.	.	16b/JJ	.	16b/JJ	.	.	.	.	16b\JJ	.	.	.	.	.	.
=83	=83	=83	=83	=83	=83	=83	=83	=83	=83	=83	=83	=83	=83	=83	=83	=83
4E\	.	.	16ccn\LL	.	16ccn\LL	.	4E\	-cun-	.	(8ccn\L	-cun-	.	2r	.	2r	.
.	.	.	16b\	.	16b\	.	.	.	.	.	.	.	.	.	.	.
.	.	.	16ee\	.	16ee\	.	.	.	.	8b\J)	.	.	.	.	.	.
.	.	.	16dd\JJ	.	16dd\JJ	.	.	.	.	.	.	.	.	.	.	.
!	!	!	!	!	!	!	!	!	!	!LO:LB:g=original	!	!	!	!	!	!
4Cn/	.	.	16ccn\LL	.	16ccn\LL	.	8Cn/	-dum	.	8a\	-Dum	.	.	.	.	.
.	.	.	16b\	.	16b\	.	.	.	.	.	.	.	.	.	.	.
.	.	.	16a\	.	16a\	.	8C/	Scri-	.	8g\	scri-	.	.	.	.	.
.	.	.	16g\JJ	.	16g\JJ	.	.	.	.	.	.	.	.	.	.	.
=84	=84	=84	=84	=84	=84	=84	=84	=84	=84	=84	=84	=84	=84	=84	=84	=84
8D/L	.	.	4f#t/	.	4f#t/	.	8D/	-ptu-	.	8f#/	-ptu-	.	2r	.	2r	.
!	!	!	!	!	!	!	!	!	!	!LO:SIC:l:s=ras	!	!	!	!	!	!
.	.	.	.	.	.	.	.	.	.	8qqe/	.	.	.	.	.	.
8Cn/	.	.	.	.	.	.	8Cn/	-ras	.	8d/	-ros	.	.	.	.	.
8BB/	.	.	8d/L	.	8d/L	.	8BB/	et	.	8g\	et	.	.	.	.	.
8GG/J	.	.	8g/J	.	8g/J	.	8GG/	as-	.	8g\	as-	.	.	.	.	.
=85	=85	=85	=85	=85	=85	=85	=85	=85	=85	=85	=85	=85	=85	=85	=85	=85
!	!	!	!LO:TX:t=P:problem=mixed beam	!	!LO:TX:t=P:problem=mixed beam	!	!	!	!	!	!	!	!	!	!	!
8Cn/L	.	.	8e/L	.	8e/L	.	8Cn/L	-cen-	.	4g\	-cen-	.	2r	.	2r	.
16D/L	.	.	16ccn\L	.	16ccn\L	.	16D/L	.	.	.	.	.	.	.	.	.
16E/JJ	.	.	16b\JJ	.	16b\JJ	.	16E/JJ	.	.	.	.	.	.	.	.	.
8AA/L	.	.	8cc\L	.	8cc\L	.	8AA/	-dit	.	8ccn\	-dit	.	.	.	.	.
8Cn/J	.	.	8e/J	.	8e/J	.	8C/	in	.	8a\	in	.	.	.	.	.
!	!	!	!	!	!	!	!LO:LB:g=original	!	!	!	!	!	!	!	!	!
=86	=86	=86	=86	=86	=86	=86	=86	=86	=86	=86	=86	=86	=86	=86	=86	=86
8D\L	.	.	8f#/L	.	8f#/	.	8D\	ca-	.	8dd\	Ce-	.	2r	.	2r	.
8E\	.	.	8g/	.	4aa\	.	8E\	-lum	.	8dd\	-lum	.	.	.	.	.
8F#\	.	.	8a/	.	.	.	8F#\	Se-	.	8dd\	Se-	.	.	.	.	.
8D\J	.	.	8f#/J	.	8ccn\	.	16E\	-det	.	16dd\	-det	.	.	.	.	.
.	.	.	.	.	.	.	16D\	ad	.	16dd\	ad	.	.	.	.	.
=87	=87	=87	=87	=87	=87	=87	=87	=87	=87	=87	=87	=87	=87	=87	=87	=87
!LO:TX:t=P:problem=zbędny takt w cl 1 i cl 2	!	!	!LO:TX:t=P:problem=zbędny takt w cl 1 i cl 2	!	!LO:TX:t=P:problem=zbędny takt w cl 1 i cl 2	!	!LO:TX:t=P:problem=zbędny takt w cl 1 i cl 2	!	!	!LO:TX:t=P:problem=zbędny takt w cl 1 i cl 2	!	!	!LO:TX:t=P:problem=zbędny takt	!	!LO:TX:t=P:problem=zbędny takt	!
2ryy	.	.	2ryy	.	2ryy	.	2ryy	.	.	2ryy	.	.	2r	.	2r	.
=88	=88	=88	=88	=88	=88	=88	=88	=88	=88	=88	=88	=88	=88	=88	=88	=88
!	!	!	!	!	!LO:SIC:s=8qccn	!	!	!	!	!	!	!	!	!	!	!
.	.	.	.	.	8qqcc#/	.	.	.	.	.	.	.	.	.	.	.
8G\L	.	.	4g/	.	8b\L	.	8G\	Dex-	.	8b\	dex-	.	8d/L	.	8d/L	.
8cn\	.	.	.	.	16a\L	.	16cn\	-te-	.	16ccn\	-te-	.	16d/L	.	16d/L	.
.	.	.	.	.	16g\JJ	.	16c\	-ram	.	16b\	-ram	.	16d/JJ	.	16d/JJ	.
8d\	.	.	4f#/	.	4aT/	.	4d\	Pa-	.	4aT\	pa-	.	8d/L	.	8d/L	.
8D\J	.	.	.	.	.	.	.	.	.	.	.	.	8d/J	.	8d/J	.
=89	=89	=89	=89	=89	=89	=89	=89	=89	=89	=89	=89	=89	=89	=89	=89	=89
8G\L	.	.	16g/LL	.	16g/LL	.	8G\	-tris	.	8g\	-tris	.	4d/	.	4d/	.
.	.	.	16b/	.	16b/	.	.	.	.	.	.	.	.	.	.	.
8G\	.	.	16dd/	.	16dd/	.	8G\	et	.	8dd\	Et	.	.	.	.	.
.	.	.	16gg/JJ	.	16gg/JJ	.	.	.	.	.	.	.	.	.	.	.
8G\	.	.	16bb\LL	.	16bb\LL	.	8G\	i-	.	8dd\	i-	.	8r	.	8r	.
.	.	.	16gg\	.	16gg\	.	.	.	.	.	.	.	.	.	.	.
8G\J	.	.	16dd\	.	16dd\	.	8G\	-te-	.	8dd\	-te-	.	16d/LL	.	16d/LL	.
.	.	.	16b\JJ	.	16b\JJ	.	.	.	.	.	.	.	16d/JJ	.	16d/JJ	.
!	!	!	!LO:LB:g=original	!	!	!	!	!	!	!	!	!	!	!	!	!
=90	=90	=90	=90	=90	=90	=90	=90	=90	=90	=90	=90	=90	=90	=90	=90	=90
8F#\L	.	.	16f#/LL	.	16f#/LL	.	8F#\	-rum	.	8dd\	-rum	.	8d/L	.	8d/L	.
.	.	.	16a/	.	16a/	.	.	.	.	.	.	.	.	.	.	.
8F#\	.	.	16dd/	.	16dd/	.	8F#\	Ven-	.	8dd\	ven-	.	8d/J	.	8d/J	.
.	.	.	16ff#/JJ	.	16ff#/JJ	.	.	.	.	.	.	.	.	.	.	.
8F#\	.	.	16aa\LL	.	16aa\LL	.	8F#\	-tu-	.	8dd\	-tu-	.	4d/	.	4d/	.
.	.	.	16ff#\	.	16ff#\	.	.	.	.	.	.	.	.	.	.	.
8F#\J	.	.	16dd\	.	16dd\	.	8F#\	-ris	.	8dd\	-ris	.	.	.	.	.
.	.	.	16a\JJ	.	16a\JJ	.	.	.	.	.	.	.	.	.	.	.
!	!	!	!	!	!	!	!	!	!	!LO:LB:g=original	!	!	!	!	!	!
=91	=91	=91	=91	=91	=91	=91	=91	=91	=91	=91	=91	=91	=91	=91	=91	=91
8E\L	.	.	16e/LL	.	16e/LL	.	8E\	est	.	8b\	est	.	2r	.	2r	.
.	.	.	16ee\	.	16ee\	.	.	.	.	.	.	.	.	.	.	.
8E\	.	.	16ff#\	.	16ff#\	.	8E\	cum	.	8cc#X\	cum	.	.	.	.	.
.	.	.	16gg\JJ	.	16gg\JJ	.	.	.	.	.	.	.	.	.	.	.
8F#\	.	.	16aa\LL	.	16aa\LL	.	8F#\	glo-	.	8dd\	glo-	.	.	.	.	.
.	.	.	16dd\	.	16dd\	.	.	.	.	.	.	.	.	.	.	.
8G\J	.	.	16bb\	.	16bb\	.	16G\	-ri-	.	16ee\	-ri-	.	.	.	.	.
.	.	.	16dd\JJ	.	16dd\JJ	.	16G\	-a	.	16dd\	-a	.	.	.	.	.
=92	=92	=92	=92	=92	=92	=92	=92	=92	=92	=92	=92	=92	=92	=92	=92	=92
8A\L	.	.	16cc#X\LL	.	16cc#X\LL	.	8A\	ju-	.	8cc#\	ju-	.	8r	.	8r	.
.	.	.	16a\	.	16a\	.	.	.	.	.	.	.	.	.	.	.
8G\	.	.	16b\	.	16b\	.	8G\	-di-	.	8cc#\	-di-	.	16a/LL	.	16a/LL	.
.	.	.	16cc#\JJ	.	16cc#\JJ	.	.	.	.	.	.	.	16a/JJ	.	16a/JJ	.
8F#\	.	.	16dd\LL	.	16dd\LL	.	8F#\	-ca-	.	8dd\	-ca-	.	8a/L	.	8a/L	.
.	.	.	16ee\	.	16ee\	.	.	.	.	.	.	.	.	.	.	.
8E\J	.	.	16ff#\	.	16ff#\	.	8E\	-re	.	8cc#\	-re	.	8a/J	.	8a/J	.
.	.	.	16gg\JJ	.	16gg\JJ	.	.	.	.	.	.	.	.	.	.	.
!	!	!	!	!	!LO:LB:g=original	!	!	!	!	!	!	!	!	!	!	!
=93	=93	=93	=93	=93	=93	=93	=93	=93	=93	=93	=93	=93	=93	=93	=93	=93
4D\	.	.	16aa\LL	.	16aa\LL	.	4D\	vi-	.	4dd\	Vi-	.	8a/	.	8a/	.
.	.	.	16ff#\	.	16ff#\	.	.	.	.	.	.	.	.	.	.	.
.	.	.	16dd\	.	16dd\	.	.	.	.	.	.	.	4ff#\	.	4aa\	.
.	.	.	16a\JJ	.	16a\JJ	.	.	.	.	.	.	.	.	.	.	.
4G\	.	.	16dd\LL	.	16dd\LL	.	8G\	-vos	.	8b\	-vos	.	.	.	.	.
.	.	.	16b\JJ	.	16b\JJ	.	.	.	.	.	.	.	.	.	.	.
.	.	.	16g/LL	.	16g/LL	.	8G\	et	.	8b\	et	.	8ee\	.	8gg\	.
.	.	.	16e/JJ	.	16e/JJ	.	.	.	.	.	.	.	.	.	.	.
=94	=94	=94	=94	=94	=94	=94	=94	=94	=94	=94	=94	=94	=94	=94	=94	=94
4A\	.	.	4f#/	.	4f#/	.	4.A\	mor-	.	4dd\	mor-	.	4dd\	.	4ff#\	.
4AA/	.	.	4eT/	.	4eT/	.	.	.	.	4cc#Xt\	-tu-	.	4a/	.	4eeT\	.
.	.	.	.	.	.	.	8AA/	-tu-	.	.	.	.	.	.	.	.
=95	=95	=95	=95	=95	=95	=95	=95	=95	=95	=95	=95	=95	=95	=95	=95	=95
!LO:TX:t=P:problem=mixed beam	!	!	!	!	!	!	!	!	!	!	!	!	!	!	!	!
8D\L	.	.	8d/L	.	8d/L	.	4D\	-os	.	4dd\	-os	.	4f#/	.	4dd\	.
8DD/	.	.	8ddd\	.	8ddd\	.	.	.	.	.	.	.	.	.	.	.
8D\	.	.	8ddd\	.	8ddd\	.	8D\	cu-	.	8dd\	cu-	.	4r	.	4r	.
8E\J	.	.	8ddd\J	.	8ddd\J	.	8E\	-jus	.	8cc#\	-jus	.	.	.	.	.
!LO:LB:g=original	!	!	!	!	!	!	!	!	!	!	!	!	!	!	!	!
=96	=96	=96	=96	=96	=96	=96	=96	=96	=96	=96	=96	=96	=96	=96	=96	=96
8F#\L	.	.	8ddd\L	.	8ddd\L	.	8F#\	Re-	.	8dd\	Re-	.	8r	.	8r	.
8G\	.	.	16ccc#\L	.	16ccc#\L	.	16G\	-gni	.	16cc#\	-gni	.	8gg\L	.	8bb\L	.
.	.	.	16bb\JJ	.	16bb\JJ	.	16G\	non	.	16b\	non	.	.	.	.	.
8A\	.	.	8aa\L	.	8aa\L	.	8A\	e-	.	8a\	e-	.	8ff#\	.	8aa\	.
8AA/J	.	.	8gg\J	.	8gg\J	.	8AA/	-rit	.	8g\	-rit	.	8ee\J	.	8gg\J	.
=97	=97	=97	=97	=97	=97	=97	=97	=97	=97	=97	=97	=97	=97	=97	=97	=97
.	.	.	8qqgg/	.	8qgg/	.	.	.	.	.	.	.	.	.	.	.
8D\L	.	.	8ff#\L	.	8ff#\L	.	(8D\L	fi-	.	8f#/L	fi-	.	8dd\L	.	8ff#\L	.
8E\	.	.	16ee\L	.	16ee\L	.	8E\J)	.	.	16e/L	.	.	8a\J	.	8ee\J	.
.	.	.	16ff#\JJ	.	16ff#\JJ	.	.	.	.	16f#/JJ	.	.	.	.	.	.
!	!	!	!	!	!	!	!	!	!	!	!	!	!	!	!LO:TX:t=P:problem=mixed beam	!
!	!	!	!	!	!	!	!	!	!	!LO:LB:g=original	!	!	!	!	!	!
8F#\	.	.	8dd\L	.	8dd\L	.	8F#\	-nis	.	8d/	-nis	.	8f#/L	.	8dd\L	.
8A\J	.	.	16ee\L	.	16ee\L	.	8A\	non	.	8a\	non	.	16d/L	.	16d/L	.
.	.	.	16ff#\JJ	.	16ff#\JJ	.	.	.	.	.	.	.	16d/JJ	.	16d/JJ	.
=98	=98	=98	=98	=98	=98	=98	=98	=98	=98	=98	=98	=98	=98	=98	=98	=98
4B\	.	.	16gg\LL	.	16gg\LL	.	4B\	non	.	4dd\	non	.	8d/	.	8d/	.
.	.	.	16ff#\	.	16ff#\	.	.	.	.	.	.	.	.	.	.	.
.	.	.	16bb\	.	16bb\	.	.	.	.	.	.	.	8r	.	8r	.
.	.	.	16aa\JJ	.	16aa\JJ	.	.	.	.	.	.	.	.	.	.	.
8r	.	.	16gg\LL	.	16gg\LL	.	8r	.	.	8r	.	.	4r	.	4r	.
.	.	.	16ff#\	.	16ff#\	.	.	.	.	.	.	.	.	.	.	.
8G\	.	.	16ee\	.	16ee\	.	8G\	non	.	8b\	non	.	.	.	.	.
.	.	.	16dd\JJ	.	16dd\JJ	.	.	.	.	.	.	.	.	.	.	.
!	!	!	!	!	!	!	!	!	!	!	!	!	!LO:LB:g=original	!	!	!
=99	=99	=99	=99	=99	=99	=99	=99	=99	=99	=99	=99	=99	=99	=99	=99	=99
4A\	.	.	8cc#\L	.	8cc#X\L	.	4A\	non	.	4cc#\	non	.	8r	.	8r	.
.	.	.	16dd\L	.	16dd\L	.	.	.	.	.	.	.	16a/LL	.	16a/LL	.
.	.	.	16ee\JJ	.	16ee\JJ	.	.	.	.	.	.	.	16a/JJ	.	16a/JJ	.
8r	.	.	8A/L	.	8A/L	.	8r	.	.	8r	.	.	16a/LL	.	16a/LL	.
.	.	.	.	.	.	.	.	.	.	.	.	.	16a/	.	16a/	.
8C#X/	.	.	8g/J	.	8g/J	.	8C#/	non	.	8a\	non	.	16a/	.	16a/	.
.	.	.	.	.	.	.	.	.	.	.	.	.	16a/JJ	.	16a/JJ	.
!	!	!	!	!	!	!	!LO:LB:g=original	!	!	!	!	!	!	!	!LO:LB:g=original	!
=100	=100	=100	=100	=100	=100	=100	=100	=100	=100	=100	=100	=100	=100	=100	=100	=100
8D\L	.	.	8f#/L	.	8f#/L	.	8D\	e-	.	8a\	e-	.	4a/	.	4a/	.
8G\	.	.	8dd\J	.	8dd\	.	8G\	-rit	.	8dd\	-rit	.	.	.	.	.
8A\	.	.	8e/L	.	8e/	.	4A\	fi-	.	4cc#t\	fi-	.	8r	.	8r	.
8AA/J	.	.	8cc#\J	.	8cc#\J	.	.	.	.	.	.	.	16a/LL	.	16a/LL	.
.	.	.	.	.	.	.	.	.	.	.	.	.	16a/JJ	.	16a/JJ	.
!	!	!	!LO:LB:g=original	!	!	!	!	!	!	!	!	!	!	!	!	!
=101	=101	=101	=101	=101	=101	=101	=101	=101	=101	=101	=101	=101	=101	=101	=101	=101
4D\	.	.	8dd\L	.	8dd\L	.	4D\	-nis	.	4dd\	-nis	.	4f#/	.	4f#/	.
.	.	.	16ff#\L	.	16ff#\L	.	.	.	.	.	.	.	.	.	.	.
.	.	.	16gg\JJ	.	16gg\JJ	.	.	.	.	.	.	.	.	.	.	.
!LO:TX:a:t=Solo	!	!	!	!	!	!	!	!	!	!	!	!	!	!	!	!
8r	.	.	8aa\L	.	8aa\L	.	4r	.	.	4r	.	.	8r	.	8r	.
8D\	.	.	8f#/J	.	8f#/J	.	.	.	.	.	.	.	8dd\	.	8ff#\	.
=102	=102	=102	=102	=102	=102	=102	=102	=102	=102	=102	=102	=102	=102	=102	=102	=102
!	!	!	!LO:TX:t=P:problem=mixed beam	!	!LO:TX:t=P:problem=mixed beam	!	!	!	!	!	!	!	!	!	!	!
4E\	.	.	8g/L	.	8g/L	.	2r	.	.	2r	.	.	4ee\	.	4gg\	.
.	.	.	16ee\L	.	16ee\L	.	.	.	.	.	.	.	.	.	.	.
.	.	.	16ff#\JJ	.	16ff#\JJ	.	.	.	.	.	.	.	.	.	.	.
8r	.	.	8gg\L	.	8gg\L	.	.	.	.	.	.	.	8r	.	8r	.
8C#X/	.	.	8e/J	.	8e/J	.	.	.	.	.	.	.	8a/	.	8ee\	.
=103	=103	=103	=103	=103	=103	=103	=103	=103	=103	=103	=103	=103	=103	=103	=103	=103
!	!	!	!LO:TX:t=P:problem=mixed beam	!	!LO:TX:t=P:problem=mixed beam	!	!	!	!	!	!	!	!	!	!	!
4D\	.	.	8f#/L	.	8f#/L	.	2r	.	.	2r	.	.	4dd\	.	4ff#\	.
.	.	.	16dd\L	.	16dd\L	.	.	.	.	.	.	.	.	.	.	.
.	.	.	16ee\JJ	.	16ee\JJ	.	.	.	.	.	.	.	.	.	.	.
8r	.	.	16ff#`\LL	.	16ff#`\LL	.	.	.	.	.	.	.	8r	.	8r	.
.	.	.	(16dd\	.	(16dd\	.	.	.	.	.	.	.	.	.	.	.
8G\	.	.	16ee\	.	16ee\	.	.	.	.	.	.	.	16ee\LL	.	16gg\LL	.
.	.	.	16b\JJ)	.	16dd\JJ)	.	.	.	.	.	.	.	16dd\JJ	.	16ff#\JJ	.
=104	=104	=104	=104	=104	=104	=104	=104	=104	=104	=104	=104	=104	=104	=104	=104	=104
*	*	*	*	*	*tuplet	*	*	*	*	*	*	*	*	*	*	*
!	!	!	!LO:TX:t=P:problem=klamra łukowa, kropka zamiast numeru	!	!LO:TX:t=P:problem=klamra łukowa, kropka zamiast numeru	!	!	!	!	!	!	!	!	!	!	!
8A\L	.	.	24cc#\LL	.	24cc#\LL	.	2r	.	.	2r	.	.	8a/L	.	16ee\LL	.
.	.	.	24b\	.	24b\	.	.	.	.	.	.	.	.	.	.	.
.	.	.	.	.	.	.	.	.	.	.	.	.	.	.	16ff#\	.
.	.	.	24a\JJ	.	24a\JJ	.	.	.	.	.	.	.	.	.	.	.
8F#\	.	.	8dd\	.	8dd\	.	.	.	.	.	.	.	16f#/L	.	16dd\	.
.	.	.	.	.	.	.	.	.	.	.	.	.	16d/JJ	.	16ee\JJ	.
8G\	.	.	8e/L	.	8e/L	.	.	.	.	.	.	.	8a/L	.	4eeT\	.
8A\J	.	.	8cc#\J	.	8cc#\J	.	.	.	.	.	.	.	8a/J	.	.	.
=105	=105	=105	=105	=105	=105	=105	=105	=105	=105	=105	=105	=105	=105	=105	=105	=105
!	!	!LO:DY:a	!	!	!	!LO:DY:a	!	!	!	!	!	!	!	!	!	!
!	!	!	!	!LO:DY:a:t=p&colon;	!	!	!	!	!	!	!	!	!	!	!	!
8r	.	p	8d/L	p	8dd\L	p	2r	.	.	4a\	Et	.	4f#/	.	4dd\	.
8D\L	.	.	16dd\L	.	16ff#\L	.	.	.	.	.	.	.	.	.	.	.
.	.	.	16ee\JJ	.	16gg\JJ	.	.	.	.	.	.	.	.	.	.	.
.	.	.	.	.	.	.	.	.	.	16qqb/LL	.	.	.	.	.	.
.	.	.	.	.	.	.	.	.	.	16qqcc#/JJ	.	.	.	.	.	.
8F#\	.	.	8ff#\L	.	8aa\L	.	.	.	.	4dd\	in	.	4r	.	4r	.
8D\J	.	.	8d/J	.	8f#/J	.	.	.	.	.	.	.	.	.	.	.
=106	=106	=106	=106	=106	=106	=106	=106	=106	=106	=106	=106	=106	=106	=106	=106	=106
!	!	!	!LO:TX:t=P:problem=mixed beam	!	!LO:TX:t=P:problem=mixed beam	!	!	!	!	!	!	!	!	!	!	!
8r	.	.	8e/L	.	8g/L	.	2r	.	.	8.cc#\	Spi-	.	2r	.	2r	.
8AA/L	.	.	16cc#\L	.	16ee\L	.	.	.	.	.	.	.	.	.	.	.
.	.	.	16dd\JJ	.	16ff#\JJ	.	.	.	.	16b\	-ri-	.	.	.	.	.
8C#X/	.	.	8ee\L	.	8gg\L	.	.	.	.	4a\	-tum	.	.	.	.	.
8AA/J	.	.	8c#/J	.	8e/J	.	.	.	.	.	.	.	.	.	.	.
!	!	!	!	!	!LO:LB:g=original	!	!	!	!	!	!	!	!	!	!	!
=107	=107	=107	=107	=107	=107	=107	=107	=107	=107	=107	=107	=107	=107	=107	=107	=107
8r	.	.	8r	.	8r	.	2r	.	.	4.ee\	San-	.	2r	.	2r	.
8AA/L	.	.	16cc#\LL	.	16ee\LL	.	.	.	.	.	.	.	.	.	.	.
.	.	.	16dd\JJ	.	16ff#\JJ	.	.	.	.	.	.	.	.	.	.	.
8C#/	.	.	8ee\L	.	8gg\L	.	.	.	.	.	.	.	.	.	.	.
8AA/J	.	.	8c#/J	.	8e/J	.	.	.	.	16ff#\LL	-ctum	.	.	.	.	.
.	.	.	.	.	.	.	.	.	.	16gg\JJ	.	.	.	.	.	.
=108	=108	=108	=108	=108	=108	=108	=108	=108	=108	=108	=108	=108	=108	=108	=108	=108
!	!	!	!	!	!LO:TX:t=P:problem=mixed beam	!	!	!	!	!	!	!	!	!	!	!
8r	.	.	8d/L	.	8f#/L	.	2r	.	.	8.ff#\	Do-	.	2r	.	2r	.
8D\L	.	.	16dd\L	.	16dd\L	.	.	.	.	.	.	.	.	.	.	.
.	.	.	16cc#\JJ	.	16ee\JJ	.	.	.	.	16ee\	-mi-	.	.	.	.	.
8F#\	.	.	8dd\L	.	8ff#\L	.	.	.	.	8dd\	-num	.	.	.	.	.
8A\J	.	.	8f#/J	.	8d/J	.	.	.	.	8r	.	.	.	.	.	.
!	!	!	!	!	!	!	!	!	!	!LO:LB:g=original	!	!	!	!	!	!
=109	=109	=109	=109	=109	=109	=109	=109	=109	=109	=109	=109	=109	=109	=109	=109	=109
8d\L	.	.	8r	.	8r	.	2r	.	.	8ff#\	Et	.	2r	.	2r	.
8D\	.	.	16f#/LL	.	16dd\LL	.	.	.	.	8ff#\	vi-	.	.	.	.	.
.	.	.	16g/JJ	.	16ee\JJ	.	.	.	.	.	.	.	.	.	.	.
8F#\	.	.	8a/L	.	8ff#\L	.	.	.	.	16ff#\LL	-vi-	.	.	.	.	.
.	.	.	.	.	.	.	.	.	.	16ee\JJ	.	.	.	.	.	.
8D\J	.	.	8f#/J	.	8a/J	.	.	.	.	16dd\LL	-fi-	.	.	.	.	.
.	.	.	.	.	.	.	.	.	.	16cc#\JJ	.	.	.	.	.	.
=110	=110	=110	=110	=110	=110	=110	=110	=110	=110	=110	=110	=110	=110	=110	=110	=110
!	!	!	!LO:TX:t=P:problem=mixed beam	!	!	!	!	!	!	!	!	!	!	!	!	!
4G\	.	.	8g/L	.	8b\L	.	2r	.	.	16b\LL	-can-	.	2r	.	2r	.
.	.	.	.	.	.	.	.	.	.	16dd\	.	.	.	.	.	.
.	.	.	16ee\L	.	16gg\L	.	.	.	.	16ee\	.	.	.	.	.	.
.	.	.	16ff#\JJ	.	16aa\JJ	.	.	.	.	16ff#\JJ	.	.	.	.	.	.
!	!	!	!	!	!LO:TX:t=P:problem=mixed beam	!	!	!	!	!	!	!	!	!	!	!
4E\	.	.	8gg\L	.	8bb\L	.	.	.	.	16gg\LL	.	.	.	.	.	.
.	.	.	.	.	.	.	.	.	.	16ff#\	.	.	.	.	.	.
.	.	.	8g/J	.	8b/J	.	.	.	.	16ee\	.	.	.	.	.	.
.	.	.	.	.	.	.	.	.	.	16dd\JJ	.	.	.	.	.	.
!LO:LB:g=original	!	!	!	!	!	!	!	!	!	!	!	!	!	!	!	!
=111	=111	=111	=111	=111	=111	=111	=111	=111	=111	=111	=111	=111	=111	=111	=111	=111
8A\L	.	.	8r	.	8r	.	2r	.	.	8cc#\	.	.	2r	.	2r	.
.	.	.	.	.	.	.	.	.	.	8qqb/	.	.	.	.	.	.
8G\	.	.	8e/L	.	4cc#\	.	.	.	.	8a\	-tem	.	.	.	.	.
8F#\	.	.	8a/	.	.	.	.	.	.	8a\	qui	.	.	.	.	.
8D\J	.	.	8f#/J	.	[8dd\	.	.	.	.	8a\	ex	.	.	.	.	.
=112	=112	=112	=112	=112	=112	=112	=112	=112	=112	=112	=112	=112	=112	=112	=112	=112
4G\	.	.	8b/L	.	8dd\L]	.	2r	.	.	8b\	Pa-	.	2r	.	2r	.
.	.	.	8a/J	.	8ee\J	.	.	.	.	8cc#\	-tre	.	.	.	.	.
8F#\L	.	.	8a/	.	8a/	.	.	.	.	8dd\	fi-	.	.	.	.	.
8D\J	.	.	8r	.	8r	.	.	.	.	16cc#\LL	-li-	.	.	.	.	.
.	.	.	.	.	.	.	.	.	.	16b\JJ	.	.	.	.	.	.
!	!	!	!LO:LB:g=original	!	!	!	!	!	!	!	!	!	!	!	!	!
=113	=113	=113	=113	=113	=113	=113	=113	=113	=113	=113	=113	=113	=113	=113	=113	=113
8C#/L	.	.	2r	.	2r	.	2r	.	.	(8a\L	-o-	.	2r	.	2r	.
8AA/	.	.	.	.	.	.	.	.	.	8g\J)	.	.	.	.	.	.
8D/	.	.	.	.	.	.	.	.	.	8f#/	-que	.	.	.	.	.
8G/J	.	.	.	.	.	.	.	.	.	16e/LL	pro	.	.	.	.	.
.	.	.	.	.	.	.	.	.	.	16d/JJ	.	.	.	.	.	.
=114	=114	=114	=114	=114	=114	=114	=114	=114	=114	=114	=114	=114	=114	=114	=114	=114
4A\	.	.	2r	.	2r	.	2r	.	.	2e/	ce-	.	2r	.	2r	.
4AA/	.	.	.	.	.	.	.	.	.	.	.	.	.	.	.	.
=115	=115	=115	=115	=115	=115	=115	=115	=115	=115	=115	=115	=115	=115	=115	=115	=115
*	*	*	*^	*	*	*	*	*	*	*	*	*	*	*	*	*
!LO:TX:a:t=Tuti	!	!	!	!	!	!	!	!	!	!	!	!	!	!	!	!	!
8D\L	.	.	8r	8ryy	.	8r	.	4r	.	.	8d/	-dit	.	4r	.	4r	.
8D\	.	.	16dd\LL	8ryy	.	16ff#\LL	.	.	.	.	8r	.	.	.	.	.	.
.	.	.	16ee\JJ	.	.	16gg\JJ	.	.	.	.	.	.	.	.	.	.	.
!	!	!	!	!	!	!LO:TX:t=P:problem=mixed beam	!	!	!	!	!	!	!	!	!	!	!
8F#\	.	.	8ff#\L	8ryy	.	8aa\L	.	8d\	Qui	.	8a\	qui	.	8r	.	8r	.
8D\J	.	.	8a/J	8f#\	.	8a/J	.	8d\	cum	.	8a\	cum	.	16a/LL	.	16a/LL	.
.	.	.	.	.	.	.	.	.	.	.	.	.	.	16a/JJ	.	16a/JJ	.
=116	=116	=116	=116	=116	=116	=116	=116	=116	=116	=116	=116	=116	=116	=116	=116	=116	=116
8C#/L	.	.	8a/	8e\	.	8a/	.	8c#\	Pa-	.	8a\	Pa-	.	8a/	.	8a/	.
8C#/	.	.	4ee\	8ryy	.	4gg\	.	16c#\	-tre	.	16a\	-tre	.	4ee\	.	4gg\	.
.	.	.	.	.	.	.	.	16c#\	et	.	16a\	et	.	.	.	.	.
!	!	!	!	!	!	!	!	!	!	!	!LO:LB:g=original	!	!	!	!	!	!
8D/	.	.	.	8ryy	.	.	.	8d\	fi-	.	8a\	fi-	.	.	.	.	.
8D/J	.	.	8dd\	8ryy	.	8ff#\	.	8d\	-li-	.	8a\	-li-	.	8dd\	.	8ff#\	.
=117	=117	=117	=117	=117	=117	=117	=117	=117	=117	=117	=117	=117	=117	=117	=117	=117	=117
4AA/	.	.	8cc#\L	8ryy	.	8ee\L	.	4A\	-o	.	4a\	-o	.	8a/	.	8ee\	.
.	.	.	16dd\L	8ryy	.	16ff#\L	.	.	.	.	.	.	.	8r	.	8r	.
.	.	.	16ee\JJ	.	.	16gg\JJ	.	.	.	.	.	.	.	.	.	.	.
!	!	!	!	!	!	!LO:TX:t=P:problem=mixed beam	!	!	!	!	!	!	!	!	!	!	!
8D\L	.	.	8ff#\L	8ryy	.	8aa\L	.	8d\	Si-	.	8a\	Si-	.	4r	.	4r	.
8D\J	.	.	8a/J	8f#\	.	8a/J	.	8d\	-mul	.	8a\	-mul	.	.	.	.	.
=118	=118	=118	=118	=118	=118	=118	=118	=118	=118	=118	=118	=118	=118	=118	=118	=118	=118
8C#/L	.	.	8a/	8e\	.	8a/	.	8c#\	a-	.	8a\	a-	.	8r	.	8r	.
8C#/	.	.	4ee\	8ryy	.	4gg\	.	8c#\	-do-	.	8a\	-do-	.	4ee\	.	4gg\	.
8D/	.	.	.	4ryy	.	.	.	4d\	-ra-	.	4a\	-ra-	.	.	.	.	.
8D/J	.	.	8dd\	.	.	8ff#\	.	.	.	.	.	.	.	8dd\	.	8ff#\	.
*	*	*	*v	*v	*	*	*	*	*	*	*	*	*	*	*	*	*
=119	=119	=119	=119	=119	=119	=119	=119	=119	=119	=119	=119	=119	=119	=119	=119	=119
!LO:TX:t=P:problem=mixed beam	!	!	!	!	!	!	!	!	!	!	!	!	!	!	!	!
8AA/L	.	.	8cc#\L	.	8ee\L	.	8A\	-tur	.	8a\	-tur	.	8a/	.	8ee\	.
8A\	.	.	16a\L	.	16cc#\L	.	8A\	et	.	8a\	et	.	8r	.	8r	.
.	.	.	16b\JJ	.	16dd\JJ	.	.	.	.	.	.	.	.	.	.	.
!	!	!	!LO:TX:t=P:problem=mixed beam	!	!	!	!	!	!	!	!	!	!	!	!	!
8A\	.	.	8cc#\L	.	8ee\L	.	8A\	con-	.	8a\	con-	.	4r	.	4r	.
8AA/J	.	.	8c#/J	.	8e/J	.	8AA/	-glo-	.	8a\	-glo-	.	.	.	.	.
!	!	!	!	!	!	!	!	!	!	!	!	!	!LO:LB:g=original	!	!	!
=120	=120	=120	=120	=120	=120	=120	=120	=120	=120	=120	=120	=120	=120	=120	=120	=120
!	!	!	!	!	!LO:TX:t=P:problem=mixed beam	!	!	!	!	!	!	!	!	!	!	!
8D/L	.	.	8f#/L	.	16f#/LL	.	8D/	-ri-	.	8f#/	-ri-	.	4r	.	4r	.
.	.	.	.	.	16dd\	.	.	.	.	.	.	.	.	.	.	.
8BB/	.	.	8b/J	.	16cc#\	.	8BB/	-fi-	.	8b\	-fi-	.	.	.	.	.
.	.	.	.	.	16b\JJ	.	.	.	.	.	.	.	.	.	.	.
.	.	.	8qqa/	.	.	.	.	.	.	8qqa/	.	.	.	.	.	.
8E/	.	.	4g#X/	.	4bT\	.	4E\	-ca-	.	4g#X\	-ca-	.	8r	.	8r	.
8EE/J	.	.	.	.	.	.	.	.	.	.	.	.	16ee\LL	.	16ee\LL	.
.	.	.	.	.	.	.	.	.	.	.	.	.	16ee\JJ	.	16ee\JJ	.
!	!	!	!	!	!	!	!LO:LB:g=original	!	!	!	!	!	!	!	!	!
=121	=121	=121	=121	=121	=121	=121	=121	=121	=121	=121	=121	=121	=121	=121	=121	=121
4AA/	.	.	8a/L	.	8a\L	.	4AA/	-tur	.	4a\	-tur	.	4ee\	.	8ee\L	.
.	.	.	16a/L	.	16cc#\L	.	.	.	.	.	.	.	.	.	16ee\L	.
.	.	.	16b/JJ	.	16dd\JJ	.	.	.	.	.	.	.	.	.	16ee\JJ	.
!	!	!	!LO:TX:t=P:problem=mixed beam	!	!	!	!	!	!	!	!	!	!	!	!	!
8A\L	.	.	8cc#\L	.	8ee\L	.	8A\	qui	.	8cc#\	qui	.	4r	.	8ee\	.
8A\J	.	.	8c#/J	.	8e/J	.	8A\	lo-	.	8cc#\	lo-	.	.	.	8r	.
=122	=122	=122	=122	=122	=122	=122	=122	=122	=122	=122	=122	=122	=122	=122	=122	=122
8G#X\L	.	.	8B/	.	8e/	.	4G#X\	-cu-	.	4b\	-cu-	.	8r	.	8r	.
8G#\	.	.	4b\	.	4dd\	.	.	.	.	.	.	.	16ee\LL	.	16ee\LL	.
.	.	.	.	.	.	.	.	.	.	.	.	.	16ee\JJ	.	16ee\J	.
8A\	.	.	.	.	.	.	4A\	-tus	.	4cc#\	-tus	.	16ee\LL	.	8ee\	.
.	.	.	.	.	.	.	.	.	.	.	.	.	16ee\	.	.	.
8A\J	.	.	8a\	.	8cc#\	.	.	.	.	.	.	.	16ee\	.	8ee\J	.
.	.	.	.	.	.	.	.	.	.	.	.	.	16ee\JJ	.	.	.
!	!	!	!	!	!LO:LB:g=original	!	!	!	!	!	!	!	!	!	!	!
=123	=123	=123	=123	=123	=123	=123	=123	=123	=123	=123	=123	=123	=123	=123	=123	=123
!	!	!	!LO:SIC:s=8g#	!	!	!	!	!	!	!	!	!	!	!	!	!
8E\L	.	.	8g/L	.	8b\L	.	4E\	est	.	4b\	est	.	4ee\	.	4ee\	.
8E\	.	.	16a/L	.	16cc#\L	.	.	.	.	.	.	.	.	.	.	.
.	.	.	16b/JJ	.	16dd\JJ	.	.	.	.	.	.	.	.	.	.	.
!	!	!	!LO:TX:t=P:problem=mixed beam	!	!	!	!	!	!	!	!	!	!	!	!LO:TX:b:t=Verte	!
8A\	.	.	8cc#\L	.	8ee\L	.	8A\	per	.	8cc#\	per	.	4r	.	4r	.
8A\J	.	.	8c#/J	.	8e/J	.	8A\	pro-	.	8cc#\	pro-	.	.	.	.	.
!	!	!	!	!	!	!	!	!	!	!	!	!	!	!	!LO:LB:g=original	!
=124	=124	=124	=124	=124	=124	=124	=124	=124	=124	=124	=124	=124	=124	=124	=124	=124
8G#X\L	.	.	8B/	.	8e/	.	4G#X\	-phe-	.	(4b\	-phe-	.	8ee\L	.	8ee\L	.
8G#\	.	.	4b\	.	4dd\	.	.	.	.	.	.	.	16ee\L	.	16ee\L	.
.	.	.	.	.	.	.	.	.	.	.	.	.	16ee\JJ	.	16ee\JJ	.
8A\	.	.	.	.	.	.	4A\	.	.	4cc#\)	.	.	8ee\L	.	8ee\L	.
8A\J	.	.	8a\	.	8cc#\	.	.	.	.	.	.	.	8ee\J	.	8ee\J	.
=125	=125	=125	=125	=125	=125	=125	=125	=125	=125	=125	=125	=125	=125	=125	=125	=125
8E\L	.	.	8g#X/L	.	8b\L	.	8E\	-tas	.	8b\	-tas	.	4ee\	.	4ee\	.
8AA/J	.	.	8cc#\	.	8aa\	.	8A\	Et	.	8a\	et	.	.	.	.	.
!	!	!	!	!	!	!	!LO:SIC:l:s=nam	!	!	!	!	!	!	!	!	!
!	!	!	!	!	!	!	!	!	!	!LO:LB:g=original	!	!	!	!	!	!
8C#/L	.	.	8ee\	.	8aa\	.	8A\	u-	.	8a\	u-	.	4r	.	4r	.
8AA/J	.	.	8cc#\J	.	8aa\J	.	8A\	-num	.	8a\	-nam	.	.	.	.	.
=126	=126	=126	=126	=126	=126	=126	=126	=126	=126	=126	=126	=126	=126	=126	=126	=126
4D\	.	.	8ff#\L	.	8aa\L	.	4A\	San-	.	4a\	San-	.	2r	.	2r	.
.	.	.	16dd\L	.	16ff#\L	.	.	.	.	.	.	.	.	.	.	.
.	.	.	16ee\JJ	.	16gg\JJ	.	.	.	.	.	.	.	.	.	.	.
8r	.	.	8ff#\L	.	8aa\L	.	8A\	-ctam	.	8a\	-ctam	.	.	.	.	.
8E\	.	.	8gn/J	.	8cc#\J	.	8A\	Ca-	.	8a\	[[et	ca-	.	.	.	.
!LO:LB:g=original	!	!	!LO:LB:g=original	!	!	!	!	!	!	!	!	!	!	!	!	!
=127	=127	=127	=127	=127	=127	=127	=127	=127	=127	=127	=127	=127	=127	=127	=127	=127
!	!	!	!	!	!	!	!	!	!	!	!	!	!	!	!	!
8F#\L	.	.	8a/L	.	8dd\	.	8.A\	-tho-	.	8.a\	A-	-tho-	2r	.	2r	.
8D\	.	.	8f#/	.	4aa\	.	.	.	.	.	.	.	.	.	.	.
.	.	.	.	.	.	.	16A\	-li-	.	16a\	-po-	-li-	.	.	.	.
8C#\	.	.	8e/	.	.	.	8A\	-cam	.	8a\	-sto-	-cam	.	.	.	.
8AA\J	.	.	8ee\J	.	8gg\	.	8A\	et	.	8a\	-li]]	et	.	.	.	.
=128	=128	=128	=128	=128	=128	=128	=128	=128	=128	=128	=128	=128	=128	=128	=128	=128
!	!	!	!LO:TX:t=P:problem=mixed beam	!	!	!	!	!	!	!	!	!	!	!	!	!
4D\	.	.	8a/L	.	8ff#\L	.	8A\	A-	.	8a\	A-	.	2r	.	2r	.
.	.	.	16aa\L	.	16aa\L	.	8A\	-po-	.	8a\	-po-	.	.	.	.	.
.	.	.	16gg\JJ	.	16gg\JJ	.	.	.	.	.	.	.	.	.	.	.
8r	.	.	8aa\L	.	8aa\L	.	8.A\	-sto-	.	8.a\	-sto-	.	.	.	.	.
8A\	.	.	8ee\J	.	8ee\J	.	.	.	.	.	.	.	.	.	.	.
.	.	.	.	.	.	.	16A\	-li-	.	16a\	-li-	.	.	.	.	.
!	!	!	!	!	!	!	!LO:LB:g=original	!	!	!	!	!	!	!	!	!
=129	=129	=129	=129	=129	=129	=129	=129	=129	=129	=129	=129	=129	=129	=129	=129	=129
4C#/	.	.	16cc#\LL	.	16ee\LL	.	4C#/	-cam	.	4c#/	-cam	.	2r	.	2r	.
.	.	.	16aa\	.	16aa\	.	.	.	.	.	.	.	.	.	.	.
.	.	.	16gg#X\	.	16gg#X\	.	.	.	.	.	.	.	.	.	.	.
.	.	.	16ff#\JJ	.	16ff#\JJ	.	.	.	.	.	.	.	.	.	.	.
4D/	.	.	16ee\LL	.	(16ee\LL	.	4D/	Ec-	.	4d/	Ec-	.	.	.	.	.
.	.	.	16dd\	.	16dd\)	.	.	.	.	.	.	.	.	.	.	.
.	.	.	16cc#\	.	16cc#\	.	.	.	.	.	.	.	.	.	.	.
.	.	.	16b\JJ	.	16b\JJ	.	.	.	.	.	.	.	.	.	.	.
=130	=130	=130	=130	=130	=130	=130	=130	=130	=130	=130	=130	=130	=130	=130	=130	=130
4E\	.	.	4a/	.	4a/	.	4.E\	-cle-	.	4.e/	-le-	.	2r	.	2r	.
4EE/	.	.	4g#X/	.	4bT/	.	.	.	.	.	.	.	.	.	.	.
.	.	.	.	.	.	.	8E\	-si-	.	8e/	-si-	.	.	.	.	.
=131	=131	=131	=131	=131	=131	=131	=131	=131	=131	=131	=131	=131	=131	=131	=131	=131
!	!	!	!	!	!	!	!	!	!	!	!	!	!	!	!	!
8AA/L	.	.	8a/L	.	8a/L	.	8AA/	-am	.	8a\	-am	.	2r	.	2r	.
8A\	.	.	8cc#/	.	8ee\	.	8A\	Con-	.	8cc#\	Con-	.	.	.	.	.
8G\	.	.	8cc#/	.	8ee\	.	8G\	-fi-	.	8cc#\	-fi-	.	.	.	.	.
8G\J	.	.	8cc#/J	.	8ee\J	.	8G\	-te-	.	8cc#\	-te-	.	.	.	.	.
=132	=132	=132	=132	=132	=132	=132	=132	=132	=132	=132	=132	=132	=132	=132	=132	=132
*	*	*	*tremolo	*	*	*	*	*	*	*	*	*	*	*	*	*
8F#\L	.	.	8a#X/L	.	8cc#\L	.	8F#\	-or	.	8cc#\	-or	.	2r	.	2r	.
8F#\	.	.	8a#/	.	8cc#\	.	8F#\	u-	.	8cc#\	u-	.	.	.	.	.
8E\	.	.	8a#/	.	8cc#\	.	8E\	-num	.	8cc#\	-num	.	.	.	.	.
8E\J	.	.	8a#/J	.	8cc#\J	.	8E\	ba-	.	8cc#\	ba-	.	.	.	.	.
*	*	*	*Xtremolo	*	*	*	*	*	*	*	*	*	*	*	*	*
=133	=133	=133	=133	=133	=133	=133	=133	=133	=133	=133	=133	=133	=133	=133	=133	=133
8D\L	.	.	8b\	.	8ff#\L	.	8D\	-pti-	.	8dd\	-pti-	.	2r	.	2r	.
8D\	.	.	8r	.	8b\J	.	8D\	-ſma	.	8b\	-sma	.	.	.	.	.
!	!	!	!	!	!	!	!	!	!	!LO:LB:g=original	!	!	!	!	!	!
8E\	.	.	8b\	.	8gg\L	.	8E\	in	.	8b\	in	.	.	.	.	.
8E\J	.	.	8r	.	8b\J	.	8E\	re-	.	8b\	re-	.	.	.	.	.
=134	=134	=134	=134	=134	=134	=134	=134	=134	=134	=134	=134	=134	=134	=134	=134	=134
!	!	!	!	!	!LO:TX:t=P:problem=mixed beam	!	!	!	!	!	!	!	!	!	!	!
8F#\L	.	.	8cc#\L	.	8a#X/L	.	8F#\	-miſ-	.	8a#X\	-miſ-	.	2r	.	2r	.
8F#\	.	.	8a#X\	.	8f#/	.	8F#\	-si-	.	8a#\	-si-	.	.	.	.	.
8G\	.	.	8dd\	.	8b/	.	8G\	-o-	.	8b\	o-	.	.	.	.	.
8E\J	.	.	8cc#\J	.	8bb\J	.	8E\	-nem	.	8b\	-nem	.	.	.	.	.
=135	=135	=135	=135	=135	=135	=135	=135	=135	=135	=135	=135	=135	=135	=135	=135	=135
!	!	!	!	!	!	!	!	!	!	!	!	!	!	!	!	!
8F#\L	.	.	4b/	.	4dd\	.	8F#\	pec-	.	8b\	pec-	.	8f#/L	.	8f#/L	.
8E\	.	.	.	.	.	.	8E\	-ca-	.	8b\	-ca-	.	16f#/L	.	16f#/L	.
.	.	.	.	.	.	.	.	.	.	.	.	.	16f#/JJ	.	16f#/JJ	.
!	!	!	!	!	!	!	!	!	!	!	!	!	!	!	!LO:N:vis=8	!
8F#\	.	.	4a#X/	.	4cc#t\	.	4F#t\	-to-	.	4a#X\	-to-	.	16f#/LL	.	16f#/LL	.
!	!	!	!	!	!	!	!	!	!	!	!	!	!	!	!LO:N:vis=8	!
.	.	.	.	.	.	.	.	.	.	.	.	.	16f#/	.	16f#/	.
!	!	!	!	!	!	!	!	!	!	!	!	!	!	!	!LO:N:vis=8	!
8FF#/J	.	.	.	.	.	.	.	.	.	.	.	.	16f#/	.	16f#/	.
!	!	!	!	!	!	!	!	!	!	!	!	!	!	!	!LO:N:vis=8	!
.	.	.	.	.	.	.	.	.	.	.	.	.	16f#/JJ	.	16f#/JJ	.
=136	=136	=136	=136	=136	=136	=136	=136	=136	=136	=136	=136	=136	=136	=136	=136	=136
!	!	!	!	!	!	!	!	!	!	!	!	!	!	!	!	!
8BB/L	.	.	8b\L	.	8b\L	.	4BB/	-rum	.	4b\	-rum	.	4f#/	.	4f#/	.
8B\	.	.	8dd\	.	8gg\	.	.	.	.	.	.	.	.	.	.	.
8B\	.	.	8dd\	.	8gg\	.	8B\	Et	.	8dd\	et	.	8r	.	8r	.
8B\J	.	.	8dd\J	.	8gg\J	.	8B\	ex-	.	8dd\	ex-	.	8dd\	.	8dd\	.
!	!	!	!	!	!	!	!LO:LB:g=original	!	!	!	!	!	!	!	!	!
=137	=137	=137	=137	=137	=137	=137	=137	=137	=137	=137	=137	=137	=137	=137	=137	=137
!	!	!	!	!	!	!	!	!	!	!	!	!	!	!	!	!
8c#\L	.	.	8ee\L	.	8gg\L	.	8c#\	-pec-	.	8ee\	-pec-	.	4a/	.	4ee\	.
!	!	!	!	!	!	!	!	!	!	!LO:SIC:l:to	!	!	!	!	!	!
8c#\	.	.	8e/J	.	8a/	.	8c#\	-to	.	8ee\	-ta	.	.	.	.	.
!	!	!	!	!	!	!	!	!	!	!	!	!	!	!	!	!
8d\	.	.	8dd\L	.	8ff#\	.	8d\	re-	.	8ff#\	re-	.	4dd\	.	4ff#\	.
8d\J	.	.	8d/J	.	8a/J	.	8d\	-sur-	.	8ff#\	-sur-	.	.	.	.	.
=138	=138	=138	=138	=138	=138	=138	=138	=138	=138	=138	=138	=138	=138	=138	=138	=138
8c#\L	.	.	8a\L	.	8ee\L	.	8c#\	-rec-	.	8ee\	-rec-	.	4a/	.	4ee\	.
.	.	.	.	.	.	.	.	.	.	8qqdd/	.	.	.	.	.	.
8A\	.	.	8cc#\	.	8a\	.	8A\	-ci-	.	8cc#\	-ti-	.	.	.	.	.
8d\	.	.	8aa\	.	8ff#\	.	8d\	-o-	.	8ff#\	-o-	.	4r	.	4r	.
8cn\J	.	.	8ee\J	.	8aa\J	.	8cn\	-nem	.	8ee\	-nem	.	.	.	.	.
!	!	!	!	!	!LO:LB:g=original	!	!	!	!	!	!	!	!	!	!	!
=139	=139	=139	=139	=139	=139	=139	=139	=139	=139	=139	=139	=139	=139	=139	=139	=139
!LO:TX:B:a:t=Adagio	!	!	!LO:TX:a:B:t=Adagio	!	!LO:TX:a:B:t=Adagio	!	!LO:TX:a:B:t=Adagio	!	!	!LO:TX:a:B:t=Adagio	!	!	!	!	!LO:TX:a:B:t=adagio	!
4B-X\	.	.	4dd\	.	4gg#X\	.	4B-X\	mor-	.	4dd\	mor-	.	2r	.	2r	.
4A\	.	.	4cc#\	.	4aa\	.	4A\	-tu-	.	4cc#\	-tu-	.	.	.	.	.
=140	=140	=140	=140	=140	=140	=140	=140	=140	=140	=140	=140	=140	=140	=140	=140	=140
!	!	!	!	!	!	!	!	!	!	!	!	!	!LO:TX:a:B:t=Adagio	!	!	!
2G#X\	.	.	2dd\	.	2ffn\	.	2G#X\	-o-	.	2dd\	-o-	.	8r	.	8r	.
.	.	.	.	.	.	.	.	.	.	.	.	.	16d/LL	.	16d/LL	.
.	.	.	.	.	.	.	.	.	.	.	.	.	16d/JJ	.	16d/JJ	.
.	.	.	.	.	.	.	.	.	.	.	.	.	16d/LL	.	16d/LL	.
.	.	.	.	.	.	.	.	.	.	.	.	.	16d/	.	16d/	.
.	.	.	.	.	.	.	.	.	.	.	.	.	16d/	.	16d/	.
.	.	.	.	.	.	.	.	.	.	.	.	.	16d/JJ	.	16d/JJ	.
!	!	!	!	!	!	!	!	!	!	!LO:LB:g=original	!	!	!	!	!	!
=141	=141	=141	=141	=141	=141	=141	=141	=141	=141	=141	=141	=141	=141	=141	=141	=141
2A;<\	.	.	2cc#;\	.	2ee;\	.	2A\	-rum	.	2cc#;\	-rum	.	2A;/	.	2A;/	.
!LO:LB:g=original	!	!	!	!	!	!	!	!	!	!	!	!	!LO:LB:g=original	!	!	!
=142||	=142||	=142||	=142||	=142||	=142||	=142||	=142||	=142||	=142||	=142||	=142||	=142||	=142||	=142||	=142||	=142||
!	!	!	!LO:TX:b:t=Etvitam	!	!	!	!	!	!	!	!	!	!	!	!	!
!LO:TX:a:B:t=All[egr]o&colon;	!	!	!LO:TX:a:B:t=All[egr]o&colon;	!	!LO:TX:a:B:t=All[egr]o	!	!	!	!	!	!	!	!LO:TX:a:B:t=All[egr]o	!	!LO:TX:a:B:t=All[egr]o&colon;	!
4D/	.	.	8r	.	8r	.	4D\	Et	.	4ff#\	Et	.	4dd\	.	4ff#\	.
.	.	.	8ddd\L	.	8ddd\L	.	.	.	.	.	.	.	.	.	.	.
4E\	.	.	8ddd\	.	8ddd\	.	4E\	vi-	.	4gg\	vi-	.	4ee\	.	4ggT\	.
.	.	.	8ddd\J	.	8ddd\J	.	.	.	.	.	.	.	.	.	.	.
=143	=143	=143	=143	=143	=143	=143	=143	=143	=143	=143	=143	=143	=143	=143	=143	=143
!	!	!	!	!	!	!	!	!	!	!	!	!	!	!	!	!
8F#\L	.	.	8ddd\L	.	8ddd\L	.	8F#\	-tam	.	8aa\	-tam	.	4ff#\	.	4aa\	.
8G\	.	.	16ccc#\L	.	16ccc#\L	.	8G\	ven-	.	8dd\	Ven-	.	.	.	.	.
.	.	.	16bb\JJ	.	16bb\JJ	.	.	.	.	.	.	.	.	.	.	.
8A\	.	.	8aa\L	.	8aa\L	.	8A\	-tu-	.	8dd\	-tu-	.	8r	.	8r	.
8AA/J	.	.	8gg\J	.	8gg\J	.	8AA/	-ri	.	8cc#\	-ri	.	8ee\	.	8gg\	.
!	!	!	!LO:LB:g=original	!	!	!	!	!	!	!	!	!	!	!	!	!
=144	=144	=144	=144	=144	=144	=144	=144	=144	=144	=144	=144	=144	=144	=144	=144	=144
.	.	.	8qgg/	.	8qqgg/	.	.	.	.	.	.	.	.	.	8qqgg/	.
8D\L	.	.	8ff#\L	.	8ff#\L	.	8D\	Se-	.	8dd\	Se-	.	8dd\L	.	8ff#\L	.
8E\	.	.	16ee\L	.	16ee\L	.	8E\	-cu-	.	16cc#\LL	-cu-	.	8a\J	.	16ee\L	.
.	.	.	16ff#\JJ	.	16ff#\JJ	.	.	.	.	16b\JJ	.	.	.	.	16ff#\JJ	.
8F#\	.	.	8dd\L	.	8dd\L	.	8F#\	-li	.	8a\	-li	.	4f#/	.	4dd\	.
8A\J	.	.	16ee\L	.	16ee\L	.	8A\	Ven-	.	16ee\LL	Ven-	.	.	.	.	.
.	.	.	16ff#\JJ	.	16ff#\JJ	.	.	.	.	16ff#\JJ	.	.	.	.	.	.
=145	=145	=145	=145	=145	=145	=145	=145	=145	=145	=145	=145	=145	=145	=145	=145	=145
4B\	.	.	16gg\LL	.	16gg\LL	.	4B\	-tu-	.	4gg\	-tu-	.	2r	.	2r	.
.	.	.	16ff#\	.	16ff#\	.	.	.	.	.	.	.	.	.	.	.
.	.	.	16bb\	.	16bb\	.	.	.	.	.	.	.	.	.	.	.
.	.	.	16aa\JJ	.	16aa\JJ	.	.	.	.	.	.	.	.	.	.	.
4G\	6	.	16gg\LL	.	16gg\LL	.	4G\	-ri	.	4ee\	-ri	.	.	.	.	.
.	.	.	16ff#\	.	16ff#\	.	.	.	.	.	.	.	.	.	.	.
.	.	.	16ee\	.	16ee\	.	.	.	.	.	.	.	.	.	.	.
.	.	.	16dd\JJ	.	16dd\JJ	.	.	.	.	.	.	.	.	.	.	.
!	!	!	!	!	!	!	!LO:LB:g=original	!	!	!	!	!	!	!	!	!
=146	=146	=146	=146	=146	=146	=146	=146	=146	=146	=146	=146	=146	=146	=146	=146	=146
.	.	.	8qqdd/	.	8qqdd/	.	.	.	.	8qqdd/	.	.	.	.	.	.
8A\L	.	.	8cc#\L	.	8cc#\L	.	8A\	Se-	.	8cc#\	Se-	.	2r	.	2r	.
8G\	.	.	16b\L	.	(16b\L	.	8G\	-cu-	.	8b\	-cu-	.	.	.	.	.
.	.	.	16cc#\JJ	.	16cc#\JJ)	.	.	.	.	.	.	.	.	.	.	.
8F#\	.	.	8a\L	.	8a\L	.	8F#\	-li	.	8a\	-li	.	.	.	.	.
8D\J	.	.	8dd\J	.	8dd\J	.	8D\	a-	.	8dd\	a-	.	.	.	.	.
=147	=147	=147	=147	=147	=147	=147	=147	=147	=147	=147	=147	=147	=147	=147	=147	=147
8G\L	.	.	8b\	.	8b\	.	8G\L	.	.	4b\	.	.	2r	.	2r	.
8F#\	.	.	4b\	.	4b\	.	8F#\	.	.	.	.	.	.	.	.	.
8G\	6	.	.	.	.	.	8G\	.	.	[<4ee\	.	.	.	.	.	.
!	!	!	!LO:TX:t=P:problem=klamra łukowa, kropka zamiast numeru	!	!LO:TX:t=P:problem=klamra łukowa, kropka zamiast numeru	!	!	!	!	!	!	!	!	!	!	!
8E\J	.	.	24ee\LL	.	24ee\LL	.	8E\J	.	.	.	.	.	.	.	.	.
.	.	.	24ff#\	.	24ff#\	.	.	.	.	.	.	.	.	.	.	.
.	.	.	24gg\JJ	.	24gg\JJ	.	.	.	.	.	.	.	.	.	.	.
=148	=148	=148	=148	=148	=148	=148	=148	=148	=148	=148	=148	=148	=148	=148	=148	=148
!	!	!	!	!	!	!	!	!	!	!LO:N:xstem:cue	!	!	!	!	!	!
8A\L	.	.	8cc#\	.	8cc#\	.	8A\L	.	.	8ee\]	.	.	2r	.	2r	.
8G\	.	.	4cc#\	.	4cc#\	.	8G\	.	.	8cc#\	.	.	.	.	.	.
8A\	.	.	.	.	.	.	8A\	.	.	[<4ff#\	.	.	.	.	.	.
!	!	!	!LO:TX:t=P:problem=klamra łukowa, kropka zamiast numeru	!	!LO:TX:t=P:problem=klamra łukowa, kropka zamiast numeru	!	!	!	!	!	!	!	!	!	!	!
8F#\J	.	.	24ff#\LL	.	24ff#\LL	.	8F#\J	.	.	.	.	.	.	.	.	.
.	.	.	24gg\	.	24gg\	.	.	.	.	.	.	.	.	.	.	.
.	.	.	24aa\JJ	.	24aa\JJ	.	.	.	.	.	.	.	.	.	.	.
=149	=149	=149	=149	=149	=149	=149	=149	=149	=149	=149	=149	=149	=149	=149	=149	=149
!	!	!	!LO:TX:t=P:problem=mixed beam	!	!	!	!	!	!	!	!	!	!	!	!	!
!	!	!	!	!	!	!	!	!	!	!LO:N:xstem:cue	!	!	!	!	!	!
8B\L	.	.	8dd\L	.	8dd/L	.	8B\L	.	.	8ff#\]	.	.	2r	.	2r	.
8G\	.	.	8ee\	.	8ee/	.	8G\	.	.	8ee\L	.	.	.	.	.	.
8A\	.	.	8e/	.	8e/	.	8A\	.	.	8dd\	.	.	.	.	.	.
8AA/J	.	.	8cc#\J	.	8cc#/J	.	8AA/J	.	.	8cc#\J	.	.	.	.	.	.
!	!	!	!	!	!	!	!	!	!	!LO:LB:g=original	!	!	!	!	!	!
=150	=150	=150	=150	=150	=150	=150	=150	=150	=150	=150	=150	=150	=150	=150	=150	=150
4D\	.	.	8dd\L	.	8dd\L	.	4D\	men	.	4dd\	-men	.	4r	.	4r	.
.	.	.	16ff#\L	.	16ff#\L	.	.	.	.	.	.	.	.	.	.	.
.	.	.	16gg\JJ	.	16gg\JJ	.	.	.	.	.	.	.	.	.	.	.
!	!	!	!	!	!	!	!	!	!	!	!	!	!	!	!	!
8r	.	.	8aa\L	.	8aa\L	.	8r	.	.	8r	.	.	8r	.	8r	.
8D\	.	.	8f#/J	.	8f#/J	.	8D\	a-	.	8dd\	a-	.	8dd\	.	8ff#\	.
=151	=151	=151	=151	=151	=151	=151	=151	=151	=151	=151	=151	=151	=151	=151	=151	=151
!	!	!	!LO:TX:t=P:problem=mixed beam	!	!LO:TX:t=P:problem=mixed beam	!	!	!	!	!	!	!	!	!	!	!
4E\	6	.	8g/L	.	8g/L	.	4E\	-men	.	4cc#\	-men	.	4ee\	.	4gg\	.
.	.	.	16ee\L	.	16ee\L	.	.	.	.	.	.	.	.	.	.	.
.	.	.	16ff#\JJ	.	16ff#\JJ	.	.	.	.	.	.	.	.	.	.	.
!	!	!	!	!	!	!	!	!	!	!	!	!	!	!	!	!
8r	.	.	8gg\L	.	8gg\L	.	8r	.	.	8r	.	.	8r	.	8r	.
8C#/	.	.	8e/J	.	8e/J	.	8C#/	a-	.	8a\	a-	.	8a/	.	8ee\	.
!	!	!	!	!	!	!	!	!	!	!	!	!	!	!	!LO:LB:g=original	!
=152	=152	=152	=152	=152	=152	=152	=152	=152	=152	=152	=152	=152	=152	=152	=152	=152
!	!	!	!LO:TX:t=P:problem=mixed beam	!	!LO:TX:t=P:problem=mixed beam	!	!	!	!	!	!	!	!	!	!	!
4D\	.	.	8f#/L	.	8f#/L	.	4D\	-men	.	4a\	-men	.	4dd\	.	4ff#\	.
.	.	.	16dd\L	.	16dd\L	.	.	.	.	.	.	.	.	.	.	.
.	.	.	16ee\JJ	.	16ee\JJ	.	.	.	.	.	.	.	.	.	.	.
8r	.	.	8ff#\L	.	8ff#\L	.	8r	.	.	8r	.	.	4r	.	8r	.
8G\	.	.	8b\J	.	8b\J	.	(8G\	a-	.	8b\	a-	.	.	.	8dd\	.
!	!	!	!	!	!LO:LB:g=original	!	!	!	!	!	!	!	!	!	!	!
=153	=153	=153	=153	=153	=153	=153	=153	=153	=153	=153	=153	=153	=153	=153	=153	=153
!	!	!	!LO:TX:t=P:problem=mixed beam	!	!LO:TX:t=P:problem=mixed beam	!	!	!	!	!	!	!	!	!	!	!
8A\L	.	.	8cc#\L	.	8cc#\L	.	8A\)	.	.	8cc#\L	.	.	8a/L	.	8ee\L	.
8B\	.	.	8dd\	.	8dd\	.	8B\	.	.	8dd\J	.	.	8dd/J	.	16ff#\L	.
.	.	.	.	.	.	.	.	.	.	.	.	.	.	.	16dd\JJ	.
8G\	.	.	8e/	.	8e/	.	8G\L	.	.	4cc#t\	.	.	8a/L	.	4eeT\	.
8A\J	.	.	8cc#\J	.	8cc#\J	.	8A\J	.	.	.	.	.	16a/L	.	.	.
.	.	.	.	.	.	.	.	.	.	.	.	.	16a/JJ	.	.	.
=154	=154	=154	=154	=154	=154	=154	=154	=154	=154	=154	=154	=154	=154	=154	=154	=154
!	!	!	!	!LO:DY:a:t=p&colon;	!	!LO:DY:a	!	!	!	!	!	!	!	!	!	!
4D\	.	.	8dd\L	p	8dd\L	p	4D\	-men	.	4dd\	-men	.	4f#/	.	4dd\	.
.	.	.	16ff#\L	.	16ff#\L	.	.	.	.	.	.	.	.	.	.	.
.	.	.	16gg\JJ	.	16gg\JJ	.	.	.	.	.	.	.	.	.	.	.
!	!	!	!	!	!	!	!	!	!	!	!	!	!	!	!	!
8r	.	.	8aa\L	.	8aa\L	.	8r	.	.	8r	.	.	8r	.	8r	.
!	!	!LO:DY:a:t=pia	!	!	!	!	!	!	!	!	!	!	!	!LO:DY:a:t=pia	!	!LO:DY:a
8D\	.	p	8f#/J	.	8f#/J	.	8D\	a-	.	8dd\	a-	.	8dd\	p	8ff#\	p
=155	=155	=155	=155	=155	=155	=155	=155	=155	=155	=155	=155	=155	=155	=155	=155	=155
!	!	!	!LO:TX:t=P:problem=mixed beam	!	!LO:TX:t=P:problem=mixed beam	!	!	!	!	!	!	!	!	!	!	!
4E\	.	.	8g/L	.	8g/L	.	4E\	-men	.	4cc#\	-men	.	4ee\	.	4gg\	.
.	.	.	16ee\L	.	16ee\L	.	.	.	.	.	.	.	.	.	.	.
.	.	.	16ff#\JJ	.	16ff#\JJ	.	.	.	.	.	.	.	.	.	.	.
!	!	!	!	!	!	!	!	!	!	!	!	!	!	!	!	!
8r	.	.	8gg\L	.	8gg\L	.	8r	.	.	8r	.	.	8r	.	8r	.
8C#/	.	.	8e/J	.	8e/J	.	8C#/	a-	.	8a\	a-	.	8a/	.	8ee\	.
=156	=156	=156	=156	=156	=156	=156	=156	=156	=156	=156	=156	=156	=156	=156	=156	=156
!	!	!	!LO:TX:t=P:problem=mixed beam	!	!LO:TX:t=P:problem=mixed beam	!	!	!	!	!	!	!	!	!	!	!
4D\	.	.	8f#/L	.	8f#/L	.	4D\	-men	.	4a\	-men	.	4dd\	.	4ff#\	.
.	.	.	16dd\L	.	16dd\L	.	.	.	.	.	.	.	.	.	.	.
.	.	.	16ee\JJ	.	16ee\JJ	.	.	.	.	.	.	.	.	.	.	.
8r	.	.	8ff#\L	.	8ff#\L	.	8r	.	.	8r	.	.	8r	.	8r	.
!	!	!LO:DY:a	!	!	!	!	!	!	!	!	!	!	!	!	!	!
8G\	.	f	8bb\J	.	8bb\J	.	(8G\	a-	.	(8b\	a-	.	8f#/	.	8dd\	.
!LO:LB:g=original	!	!	!	!	!	!	!	!	!	!	!	!	!	!	!	!
=157	=157	=157	=157	=157	=157	=157	=157	=157	=157	=157	=157	=157	=157	=157	=157	=157
!	!	!	!LO:TX:t=P:problem=mixed beam	!	!	!LO:DY:a	!	!	!	!	!	!	!	!	!	!
!	!	!	!	!	!	!LO:DY:a:t=f&colon;	!	!	!	!	!	!	!	!	!	!
8A\L	.	.	8cc#\L	.	8cc#\L	f	8A\)	.	.	8cc#\)	.	.	8a/L	.	8ee\L	.
8B\	.	.	8dd\	.	8dd\J	.	8B\	men	.	8dd\	-men	.	8dd/J	.	16ff#\L	.
.	.	.	.	.	.	.	.	.	.	.	.	.	.	.	16dd\JJ	.
!	!	!	!	!	!	!	!	!	!	!	!	!	!	!	!	!
8G\	.	.	8e/	.	8e/L	.	8G\L	a-	.	4cc#t\	a-	.	8a/L	.	4eeT\	.
8A\J	.	.	8cc#\J	.	8cc#\J	.	8A\J	.	.	.	.	.	8a/J	.	.	.
=158	=158	=158	=158	=158	=158	=158	=158	=158	=158	=158	=158	=158	=158	=158	=158	=158
!	!	!	!	!	!	!	!	!	!	!	!	!	!	!LO:DY:a:t=for	!	!
4D\	.	.	4dd\	.	4dd\	.	4D\	.	.	4dd\	-men	.	4f#/	f	4dd\	.
4AA/	.	.	4a/ 4cc# 4ee	.	4a/ 4cc# 4ee	.	4A\	a-	.	4ee\	a-	.	4a/	.	4eeT\	.
=159	=159	=159	=159	=159	=159	=159	=159	=159	=159	=159	=159	=159	=159	=159	=159	=159
4DD/	.	.	4d/ 4a 4ff#	.	4d/ 4a 4ff#	.	4d\	-m[en]	.	4ff#\	-men	.	4dd\	.	4ff#\	.
4r	.	.	4r	.	4r	.	4r	.	.	4r	.	.	4r	.	4r	.
==	==	==	==	==	==	==	==	==	==	==	==	==	==	==	==	==
*-	*-	*-	*-	*-	*-	*-	*-	*-	*-	*-	*-	*-	*-	*-	*-	*-
!!!system-decoration: [(s1,s2)][(s3,s4)][(s5,s6)]s7
!!!RDF**kern: > = above
!!!RDF**kern: < = below
!!!ENC: Krzysztof Stępień
!!!END: 2020-12-15
!!!ENC: Natalia Wrzos
!!!END: 2022-03-24
!!!YEC: Copyright 2022 Narodowy Instytut Fryderyka Chopina (https://polishscores.org)
!!!YEM: Licence CC BY 4.0 (https://creativecommons.org/licenses/by/4.0)
